(Program: NESTED_PARTS)
(Generated: 2025-05-29 01:07:28)
(Material: aluminum)
(Tool: 6.35mm End Mill)
(Units: MM)

G17 G21 G40 G49 G80 G90 G94
G91.1
T1 M6
S24000 M3
G54
G0 Z5.0
M8

G00 X25.388 Y27.984 Z5.000 (Lead in)
G01 X19.038 Y27.984 Z-3.000 F600 (Plunge)
X3.275 Y27.984 F2500 (Contour)
Y121.764 (Contour)
X19.038 Y121.764 (Contour)
X19.083 Y121.709 (Contour)
X19.161 Y121.618 (Contour)
X19.240 Y121.531 (Contour)
X19.322 Y121.443 (Contour)
X19.404 Y121.358 (Contour)
X19.489 Y121.273 (Contour)
X19.573 Y121.191 (Contour)
X19.662 Y121.109 (Contour)
X19.749 Y121.031 (Contour)
X19.840 Y120.952 (Contour)
X19.931 Y120.877 (Contour)
X20.025 Y120.802 (Contour)
X20.118 Y120.730 (Contour)
X20.214 Y120.659 (Contour)
X20.310 Y120.591 (Contour)
X20.372 Y120.548 (Contour)
X20.532 Y120.439 (Contour)
X20.716 Y120.323 (Contour)
X20.883 Y120.224 (Contour)
X21.074 Y120.121 (Contour)
X21.247 Y120.034 (Contour)
X21.445 Y119.943 (Contour)
X21.624 Y119.868 (Contour)
X21.827 Y119.791 (Contour)
X22.010 Y119.727 (Contour)
X22.218 Y119.664 (Contour)
X22.405 Y119.613 (Contour)
X22.616 Y119.563 (Contour)
X22.806 Y119.524 (Contour)
X23.021 Y119.489 (Contour)
X23.213 Y119.463 (Contour)
X23.429 Y119.441 (Contour)
X23.623 Y119.428 (Contour)
X23.840 Y119.421 (Contour)
X24.034 (Contour)
X24.251 Y119.428 (Contour)
X24.444 Y119.441 (Contour)
X24.660 Y119.463 (Contour)
X24.853 Y119.489 (Contour)
X25.067 Y119.524 (Contour)
X25.257 Y119.563 (Contour)
X25.469 Y119.613 (Contour)
X25.656 Y119.664 (Contour)
X25.863 Y119.727 (Contour)
X26.047 Y119.791 (Contour)
X26.250 Y119.868 (Contour)
X26.429 Y119.943 (Contour)
X26.626 Y120.034 (Contour)
X26.799 Y120.121 (Contour)
X26.990 Y120.224 (Contour)
X27.158 Y120.323 (Contour)
X27.341 Y120.439 (Contour)
X27.502 Y120.548 (Contour)
X27.539 Y120.576 (Contour)
X27.540 Y120.574 (Contour)
X27.591 Y120.610 (Contour)
X27.642 Y120.647 (Contour)
X27.692 Y120.683 (Contour)
X27.743 Y120.721 (Contour)
X27.793 Y120.759 (Contour)
X27.843 Y120.797 (Contour)
X27.892 Y120.836 (Contour)
X27.941 Y120.876 (Contour)
X27.989 Y120.915 (Contour)
X28.038 Y120.956 (Contour)
X28.085 Y120.996 (Contour)
X28.133 Y121.038 (Contour)
X28.179 Y121.080 (Contour)
X28.226 Y121.122 (Contour)
X28.272 Y121.164 (Contour)
X28.318 Y121.208 (Contour)
X28.363 Y121.251 (Contour)
X28.408 Y121.295 (Contour)
X28.452 Y121.339 (Contour)
X28.496 Y121.385 (Contour)
X28.539 Y121.429 (Contour)
X28.583 Y121.476 (Contour)
X28.625 Y121.521 (Contour)
X28.668 Y121.568 (Contour)
X28.709 Y121.615 (Contour)
X28.751 Y121.662 (Contour)
X28.791 Y121.710 (Contour)
X28.832 Y121.758 (Contour)
X28.871 Y121.806 (Contour)
X28.911 Y121.856 (Contour)
X28.950 Y121.904 (Contour)
X28.989 Y121.954 (Contour)
X29.026 Y122.004 (Contour)
X29.064 Y122.055 (Contour)
X29.101 Y122.105 (Contour)
X29.137 Y122.155 (Contour)
X29.172 Y122.206 (Contour)
X29.200 Y122.245 (Contour)
X29.309 Y122.406 (Contour)
X29.425 Y122.590 (Contour)
X29.523 Y122.757 (Contour)
X29.626 Y122.948 (Contour)
X29.713 Y123.121 (Contour)
X29.804 Y123.319 (Contour)
X29.879 Y123.497 (Contour)
X29.957 Y123.700 (Contour)
X30.020 Y123.884 (Contour)
X30.084 Y124.091 (Contour)
X30.135 Y124.279 (Contour)
X30.184 Y124.490 (Contour)
X30.223 Y124.680 (Contour)
X30.259 Y124.894 (Contour)
X30.284 Y125.087 (Contour)
X30.306 Y125.303 (Contour)
X30.319 Y125.496 (Contour)
X30.326 Y125.713 (Contour)
Y125.908 (Contour)
X30.319 Y126.125 (Contour)
X30.306 Y126.318 (Contour)
X30.284 Y126.534 (Contour)
X30.259 Y126.727 (Contour)
X30.223 Y126.941 (Contour)
X30.184 Y127.131 (Contour)
X30.135 Y127.342 (Contour)
X30.084 Y127.530 (Contour)
X30.020 Y127.737 (Contour)
X29.957 Y127.921 (Contour)
X29.879 Y128.124 (Contour)
X29.804 Y128.302 (Contour)
X29.713 Y128.500 (Contour)
X29.626 Y128.673 (Contour)
X29.523 Y128.864 (Contour)
X29.425 Y129.031 (Contour)
X29.309 Y129.215 (Contour)
X29.200 Y129.376 (Contour)
X29.155 Y129.435 (Contour)
X29.157 Y129.437 (Contour)
X29.089 Y129.533 (Contour)
X29.017 Y129.629 (Contour)
X28.945 Y129.722 (Contour)
X28.870 Y129.816 (Contour)
X28.795 Y129.907 (Contour)
X28.716 Y129.998 (Contour)
X28.638 Y130.086 (Contour)
X28.556 Y130.174 (Contour)
X28.474 Y130.259 (Contour)
X28.389 Y130.344 (Contour)
X28.305 Y130.425 (Contour)
X28.217 Y130.507 (Contour)
X28.129 Y130.586 (Contour)
X28.038 Y130.664 (Contour)
X27.984 Y130.710 (Contour)
X27.984 Y146.472 (Contour)
X96.364 (Contour)
X96.364 Y130.710 (Contour)
X96.309 Y130.664 (Contour)
X96.218 Y130.586 (Contour)
X96.131 Y130.507 (Contour)
X96.043 Y130.425 (Contour)
X95.958 Y130.344 (Contour)
X95.873 Y130.259 (Contour)
X95.791 Y130.174 (Contour)
X95.709 Y130.086 (Contour)
X95.631 Y129.998 (Contour)
X95.552 Y129.907 (Contour)
X95.477 Y129.816 (Contour)
X95.402 Y129.722 (Contour)
X95.330 Y129.629 (Contour)
X95.259 Y129.533 (Contour)
X95.191 Y129.437 (Contour)
X95.148 Y129.376 (Contour)
X95.039 Y129.215 (Contour)
X94.923 Y129.031 (Contour)
X94.824 Y128.864 (Contour)
X94.721 Y128.673 (Contour)
X94.634 Y128.500 (Contour)
X94.543 Y128.302 (Contour)
X94.468 Y128.124 (Contour)
X94.391 Y127.921 (Contour)
X94.327 Y127.737 (Contour)
X94.264 Y127.530 (Contour)
X94.213 Y127.342 (Contour)
X94.163 Y127.131 (Contour)
X94.124 Y126.941 (Contour)
X94.089 Y126.727 (Contour)
X94.063 Y126.534 (Contour)
X94.041 Y126.318 (Contour)
X94.028 Y126.125 (Contour)
X94.021 Y125.908 (Contour)
Y125.713 (Contour)
X94.028 Y125.496 (Contour)
X94.041 Y125.303 (Contour)
X94.063 Y125.087 (Contour)
X94.089 Y124.894 (Contour)
X94.124 Y124.680 (Contour)
X94.163 Y124.490 (Contour)
X94.213 Y124.279 (Contour)
X94.264 Y124.091 (Contour)
X94.327 Y123.884 (Contour)
X94.391 Y123.700 (Contour)
X94.468 Y123.497 (Contour)
X94.543 Y123.319 (Contour)
X94.634 Y123.121 (Contour)
X94.721 Y122.948 (Contour)
X94.824 Y122.757 (Contour)
X94.923 Y122.590 (Contour)
X95.039 Y122.406 (Contour)
X95.148 Y122.245 (Contour)
X95.176 Y122.209 (Contour)
X95.174 Y122.207 (Contour)
X95.210 Y122.157 (Contour)
X95.247 Y122.105 (Contour)
X95.283 Y122.055 (Contour)
X95.321 Y122.004 (Contour)
X95.359 Y121.954 (Contour)
X95.397 Y121.904 (Contour)
X95.436 Y121.856 (Contour)
X95.476 Y121.806 (Contour)
X95.515 Y121.758 (Contour)
X95.556 Y121.710 (Contour)
X95.596 Y121.662 (Contour)
X95.638 Y121.615 (Contour)
X95.680 Y121.568 (Contour)
X95.722 Y121.521 (Contour)
X95.764 Y121.476 (Contour)
X95.808 Y121.429 (Contour)
X95.851 Y121.385 (Contour)
X95.895 Y121.339 (Contour)
X95.939 Y121.295 (Contour)
X95.985 Y121.251 (Contour)
X96.029 Y121.208 (Contour)
X96.076 Y121.164 (Contour)
X96.121 Y121.122 (Contour)
X96.168 Y121.080 (Contour)
X96.215 Y121.038 (Contour)
X96.262 Y120.996 (Contour)
X96.310 Y120.956 (Contour)
X96.358 Y120.915 (Contour)
X96.406 Y120.876 (Contour)
X96.456 Y120.836 (Contour)
X96.504 Y120.797 (Contour)
X96.554 Y120.759 (Contour)
X96.604 Y120.721 (Contour)
X96.655 Y120.683 (Contour)
X96.705 Y120.647 (Contour)
X96.755 Y120.611 (Contour)
X96.806 Y120.575 (Contour)
X96.845 Y120.548 (Contour)
X97.006 Y120.439 (Contour)
X97.190 Y120.323 (Contour)
X97.357 Y120.224 (Contour)
X97.548 Y120.121 (Contour)
X97.721 Y120.034 (Contour)
X97.919 Y119.943 (Contour)
X98.097 Y119.868 (Contour)
X98.300 Y119.791 (Contour)
X98.484 Y119.727 (Contour)
X98.691 Y119.664 (Contour)
X98.879 Y119.613 (Contour)
X99.090 Y119.563 (Contour)
X99.280 Y119.524 (Contour)
X99.494 Y119.489 (Contour)
X99.687 Y119.463 (Contour)
X99.903 Y119.441 (Contour)
X100.096 Y119.428 (Contour)
X100.313 Y119.421 (Contour)
X100.508 (Contour)
X100.725 Y119.428 (Contour)
X100.918 Y119.441 (Contour)
X101.134 Y119.463 (Contour)
X101.327 Y119.489 (Contour)
X101.541 Y119.524 (Contour)
X101.731 Y119.563 (Contour)
X101.942 Y119.613 (Contour)
X102.130 Y119.664 (Contour)
X102.337 Y119.727 (Contour)
X102.521 Y119.791 (Contour)
X102.724 Y119.868 (Contour)
X102.902 Y119.943 (Contour)
X103.100 Y120.034 (Contour)
X103.273 Y120.121 (Contour)
X103.464 Y120.224 (Contour)
X103.631 Y120.323 (Contour)
X103.815 Y120.439 (Contour)
X103.976 Y120.548 (Contour)
X104.035 Y120.593 (Contour)
X104.037 Y120.590 (Contour)
X104.133 Y120.659 (Contour)
X104.229 Y120.730 (Contour)
X104.322 Y120.802 (Contour)
X104.416 Y120.877 (Contour)
X104.507 Y120.952 (Contour)
X104.598 Y121.031 (Contour)
X104.686 Y121.109 (Contour)
X104.774 Y121.191 (Contour)
X104.859 Y121.273 (Contour)
X104.944 Y121.358 (Contour)
X105.025 Y121.443 (Contour)
X105.107 Y121.531 (Contour)
X105.186 Y121.618 (Contour)
X105.264 Y121.709 (Contour)
X105.310 Y121.764 (Contour)
X121.072 Y121.764 (Contour)
Y27.984 (Contour)
X105.310 Y27.984 (Contour)
X105.264 Y28.038 (Contour)
X105.186 Y28.129 (Contour)
X105.107 Y28.217 (Contour)
X105.025 Y28.305 (Contour)
X104.944 Y28.389 (Contour)
X104.859 Y28.474 (Contour)
X104.774 Y28.556 (Contour)
X104.686 Y28.638 (Contour)
X104.598 Y28.716 (Contour)
X104.507 Y28.795 (Contour)
X104.416 Y28.870 (Contour)
X104.322 Y28.945 (Contour)
X104.229 Y29.017 (Contour)
X104.133 Y29.088 (Contour)
X104.037 Y29.156 (Contour)
X103.976 Y29.200 (Contour)
X103.815 Y29.309 (Contour)
X103.631 Y29.425 (Contour)
X103.464 Y29.523 (Contour)
X103.273 Y29.626 (Contour)
X103.100 Y29.713 (Contour)
X102.902 Y29.804 (Contour)
X102.724 Y29.879 (Contour)
X102.521 Y29.957 (Contour)
X102.337 Y30.020 (Contour)
X102.130 Y30.084 (Contour)
X101.942 Y30.135 (Contour)
X101.731 Y30.184 (Contour)
X101.541 Y30.223 (Contour)
X101.327 Y30.259 (Contour)
X101.134 Y30.284 (Contour)
X100.918 Y30.306 (Contour)
X100.725 Y30.319 (Contour)
X100.508 Y30.326 (Contour)
X100.313 (Contour)
X100.096 Y30.319 (Contour)
X99.903 Y30.306 (Contour)
X99.687 Y30.284 (Contour)
X99.494 Y30.259 (Contour)
X99.280 Y30.223 (Contour)
X99.090 Y30.184 (Contour)
X98.879 Y30.135 (Contour)
X98.691 Y30.084 (Contour)
X98.484 Y30.020 (Contour)
X98.300 Y29.957 (Contour)
X98.097 Y29.879 (Contour)
X97.919 Y29.804 (Contour)
X97.721 Y29.713 (Contour)
X97.548 Y29.626 (Contour)
X97.357 Y29.523 (Contour)
X97.190 Y29.425 (Contour)
X97.006 Y29.309 (Contour)
X96.845 Y29.200 (Contour)
X96.809 Y29.172 (Contour)
X96.807 Y29.173 (Contour)
X96.757 Y29.138 (Contour)
X96.705 Y29.101 (Contour)
X96.655 Y29.064 (Contour)
X96.604 Y29.026 (Contour)
X96.554 Y28.989 (Contour)
X96.504 Y28.950 (Contour)
X96.456 Y28.911 (Contour)
X96.406 Y28.871 (Contour)
X96.358 Y28.832 (Contour)
X96.310 Y28.791 (Contour)
X96.262 Y28.751 (Contour)
X96.215 Y28.709 (Contour)
X96.168 Y28.668 (Contour)
X96.121 Y28.625 (Contour)
X96.076 Y28.583 (Contour)
X96.029 Y28.539 (Contour)
X95.985 Y28.496 (Contour)
X95.939 Y28.452 (Contour)
X95.895 Y28.408 (Contour)
X95.851 Y28.363 (Contour)
X95.808 Y28.318 (Contour)
X95.764 Y28.272 (Contour)
X95.722 Y28.226 (Contour)
X95.680 Y28.179 (Contour)
X95.638 Y28.133 (Contour)
X95.596 Y28.085 (Contour)
X95.556 Y28.038 (Contour)
X95.515 Y27.989 (Contour)
X95.476 Y27.941 (Contour)
X95.436 Y27.892 (Contour)
X95.397 Y27.843 (Contour)
X95.359 Y27.793 (Contour)
X95.321 Y27.743 (Contour)
X95.283 Y27.692 (Contour)
X95.247 Y27.642 (Contour)
X95.211 Y27.592 (Contour)
X95.175 Y27.541 (Contour)
X95.148 Y27.502 (Contour)
X95.039 Y27.341 (Contour)
X94.923 Y27.158 (Contour)
X94.824 Y26.990 (Contour)
X94.721 Y26.799 (Contour)
X94.634 Y26.626 (Contour)
X94.543 Y26.429 (Contour)
X94.468 Y26.250 (Contour)
X94.391 Y26.047 (Contour)
X94.327 Y25.863 (Contour)
X94.264 Y25.656 (Contour)
X94.213 Y25.469 (Contour)
X94.163 Y25.257 (Contour)
X94.124 Y25.067 (Contour)
X94.089 Y24.853 (Contour)
X94.063 Y24.660 (Contour)
X94.041 Y24.444 (Contour)
X94.028 Y24.251 (Contour)
X94.021 Y24.034 (Contour)
Y23.840 (Contour)
X94.028 Y23.623 (Contour)
X94.041 Y23.429 (Contour)
X94.063 Y23.213 (Contour)
X94.089 Y23.021 (Contour)
X94.124 Y22.806 (Contour)
X94.163 Y22.616 (Contour)
X94.213 Y22.405 (Contour)
X94.264 Y22.218 (Contour)
X94.327 Y22.010 (Contour)
X94.391 Y21.827 (Contour)
X94.468 Y21.624 (Contour)
X94.543 Y21.445 (Contour)
X94.634 Y21.247 (Contour)
X94.721 Y21.074 (Contour)
X94.824 Y20.883 (Contour)
X94.923 Y20.716 (Contour)
X95.039 Y20.532 (Contour)
X95.148 Y20.372 (Contour)
X95.193 Y20.312 (Contour)
X95.190 Y20.310 (Contour)
X95.259 Y20.215 (Contour)
X95.330 Y20.118 (Contour)
X95.402 Y20.025 (Contour)
X95.477 Y19.931 (Contour)
X95.552 Y19.840 (Contour)
X95.631 Y19.749 (Contour)
X95.709 Y19.662 (Contour)
X95.791 Y19.573 (Contour)
X95.873 Y19.489 (Contour)
X95.958 Y19.404 (Contour)
X96.043 Y19.322 (Contour)
X96.131 Y19.240 (Contour)
X96.218 Y19.161 (Contour)
X96.309 Y19.083 (Contour)
X96.364 Y19.038 (Contour)
X96.364 Y3.275 (Contour)
X27.984 (Contour)
X27.984 Y19.038 (Contour)
X28.038 Y19.083 (Contour)
X28.129 Y19.161 (Contour)
X28.217 Y19.240 (Contour)
X28.305 Y19.322 (Contour)
X28.389 Y19.404 (Contour)
X28.474 Y19.489 (Contour)
X28.556 Y19.573 (Contour)
X28.638 Y19.662 (Contour)
X28.716 Y19.749 (Contour)
X28.795 Y19.840 (Contour)
X28.870 Y19.931 (Contour)
X28.945 Y20.025 (Contour)
X29.017 Y20.118 (Contour)
X29.088 Y20.214 (Contour)
X29.156 Y20.310 (Contour)
X29.200 Y20.372 (Contour)
X29.309 Y20.532 (Contour)
X29.425 Y20.716 (Contour)
X29.523 Y20.883 (Contour)
X29.626 Y21.074 (Contour)
X29.713 Y21.247 (Contour)
X29.804 Y21.445 (Contour)
X29.879 Y21.624 (Contour)
X29.957 Y21.827 (Contour)
X30.020 Y22.010 (Contour)
X30.084 Y22.218 (Contour)
X30.135 Y22.405 (Contour)
X30.184 Y22.616 (Contour)
X30.223 Y22.806 (Contour)
X30.259 Y23.021 (Contour)
X30.284 Y23.213 (Contour)
X30.306 Y23.429 (Contour)
X30.319 Y23.623 (Contour)
X30.326 Y23.840 (Contour)
Y24.034 (Contour)
X30.319 Y24.251 (Contour)
X30.306 Y24.444 (Contour)
X30.284 Y24.660 (Contour)
X30.259 Y24.853 (Contour)
X30.223 Y25.067 (Contour)
X30.184 Y25.257 (Contour)
X30.135 Y25.469 (Contour)
X30.084 Y25.656 (Contour)
X30.020 Y25.863 (Contour)
X29.957 Y26.047 (Contour)
X29.879 Y26.250 (Contour)
X29.804 Y26.429 (Contour)
X29.713 Y26.626 (Contour)
X29.626 Y26.799 (Contour)
X29.523 Y26.990 (Contour)
X29.425 Y27.158 (Contour)
X29.309 Y27.341 (Contour)
X29.200 Y27.502 (Contour)
X29.172 Y27.539 (Contour)
X29.173 Y27.540 (Contour)
X29.138 Y27.591 (Contour)
X29.101 Y27.642 (Contour)
X29.064 Y27.692 (Contour)
X29.026 Y27.743 (Contour)
X28.989 Y27.793 (Contour)
X28.950 Y27.843 (Contour)
X28.911 Y27.892 (Contour)
X28.871 Y27.941 (Contour)
X28.832 Y27.989 (Contour)
X28.791 Y28.038 (Contour)
X28.751 Y28.085 (Contour)
X28.709 Y28.133 (Contour)
X28.668 Y28.179 (Contour)
X28.625 Y28.226 (Contour)
X28.583 Y28.272 (Contour)
X28.539 Y28.318 (Contour)
X28.496 Y28.363 (Contour)
X28.452 Y28.408 (Contour)
X28.408 Y28.452 (Contour)
X28.363 Y28.496 (Contour)
X28.318 Y28.539 (Contour)
X28.272 Y28.583 (Contour)
X28.226 Y28.625 (Contour)
X28.179 Y28.668 (Contour)
X28.133 Y28.709 (Contour)
X28.085 Y28.751 (Contour)
X28.038 Y28.791 (Contour)
X27.989 Y28.832 (Contour)
X27.941 Y28.871 (Contour)
X27.892 Y28.911 (Contour)
X27.843 Y28.950 (Contour)
X27.793 Y28.989 (Contour)
X27.743 Y29.026 (Contour)
X27.692 Y29.064 (Contour)
X27.642 Y29.101 (Contour)
X27.592 Y29.137 (Contour)
X27.541 Y29.172 (Contour)
X27.502 Y29.200 (Contour)
X27.341 Y29.309 (Contour)
X27.158 Y29.425 (Contour)
X26.990 Y29.523 (Contour)
X26.799 Y29.626 (Contour)
X26.626 Y29.713 (Contour)
X26.429 Y29.804 (Contour)
X26.250 Y29.879 (Contour)
X26.047 Y29.957 (Contour)
X25.863 Y30.020 (Contour)
X25.656 Y30.084 (Contour)
X25.469 Y30.135 (Contour)
X25.257 Y30.184 (Contour)
X25.067 Y30.223 (Contour)
X24.853 Y30.259 (Contour)
X24.660 Y30.284 (Contour)
X24.444 Y30.306 (Contour)
X24.251 Y30.319 (Contour)
X24.034 Y30.326 (Contour)
X23.840 (Contour)
X23.623 Y30.319 (Contour)
X23.429 Y30.306 (Contour)
X23.213 Y30.284 (Contour)
X23.021 Y30.259 (Contour)
X22.806 Y30.223 (Contour)
X22.616 Y30.184 (Contour)
X22.405 Y30.135 (Contour)
X22.218 Y30.084 (Contour)
X22.010 Y30.020 (Contour)
X21.827 Y29.957 (Contour)
X21.624 Y29.879 (Contour)
X21.445 Y29.804 (Contour)
X21.247 Y29.713 (Contour)
X21.074 Y29.626 (Contour)
X20.883 Y29.523 (Contour)
X20.716 Y29.425 (Contour)
X20.532 Y29.309 (Contour)
X20.372 Y29.200 (Contour)
X20.312 Y29.155 (Contour)
X20.310 Y29.157 (Contour)
X20.215 Y29.089 (Contour)
X20.118 Y29.017 (Contour)
X20.025 Y28.945 (Contour)
X19.931 Y28.870 (Contour)
X19.840 Y28.795 (Contour)
X19.749 Y28.716 (Contour)
X19.662 Y28.638 (Contour)
X19.573 Y28.556 (Contour)
X19.489 Y28.474 (Contour)
X19.404 Y28.389 (Contour)
X19.322 Y28.305 (Contour)
X19.240 Y28.217 (Contour)
X19.161 Y28.129 (Contour)
X19.083 Y28.038 (Contour)
X19.038 Y27.984 (Contour)
(Contour)
G00 Z5.000 (Lead out)
X25.434 Y27.884 (Lead in)
G01 X19.084 Y27.884 Z-3.000 F600 (Plunge)
X3.175 Y27.884 F2500 (Contour)
Y121.864 (Contour)
X19.084 Y121.864 (Contour)
X19.160 Y121.773 (Contour)
X19.236 Y121.685 (Contour)
X19.314 Y121.597 (Contour)
X19.394 Y121.512 (Contour)
X19.476 Y121.427 (Contour)
X19.558 Y121.345 (Contour)
X19.643 Y121.263 (Contour)
X19.728 Y121.184 (Contour)
X19.816 Y121.106 (Contour)
X19.904 Y121.029 (Contour)
X19.995 Y120.954 (Contour)
X20.086 Y120.881 (Contour)
X20.179 Y120.810 (Contour)
X20.272 Y120.741 (Contour)
X20.368 Y120.672 (Contour)
X20.428 Y120.630 (Contour)
X20.588 Y120.521 (Contour)
X20.766 Y120.409 (Contour)
X20.934 Y120.311 (Contour)
X21.119 Y120.210 (Contour)
X21.292 Y120.123 (Contour)
X21.484 Y120.035 (Contour)
X21.662 Y119.960 (Contour)
X21.859 Y119.885 (Contour)
X22.043 Y119.822 (Contour)
X22.244 Y119.760 (Contour)
X22.431 Y119.709 (Contour)
X22.636 Y119.661 (Contour)
X22.826 Y119.622 (Contour)
X23.034 Y119.588 (Contour)
X23.226 Y119.562 (Contour)
X23.436 Y119.541 (Contour)
X23.629 Y119.528 (Contour)
X23.840 Y119.521 (Contour)
X24.034 (Contour)
X24.244 Y119.528 (Contour)
X24.438 Y119.541 (Contour)
X24.647 Y119.562 (Contour)
X24.840 Y119.588 (Contour)
X25.047 Y119.622 (Contour)
X25.237 Y119.661 (Contour)
X25.442 Y119.709 (Contour)
X25.630 Y119.760 (Contour)
X25.831 Y119.822 (Contour)
X26.014 Y119.885 (Contour)
X26.211 Y119.960 (Contour)
X26.390 Y120.035 (Contour)
X26.581 Y120.123 (Contour)
X26.755 Y120.210 (Contour)
X26.940 Y120.311 (Contour)
X27.107 Y120.409 (Contour)
X27.285 Y120.521 (Contour)
X27.446 Y120.630 (Contour)
X27.481 Y120.657 (Contour)
X27.482 Y120.656 (Contour)
X27.533 Y120.692 (Contour)
X27.583 Y120.727 (Contour)
X27.634 Y120.764 (Contour)
X27.683 Y120.801 (Contour)
X27.732 Y120.838 (Contour)
X27.781 Y120.876 (Contour)
X27.830 Y120.914 (Contour)
X27.878 Y120.953 (Contour)
X27.926 Y120.993 (Contour)
X27.973 Y121.032 (Contour)
X28.020 Y121.072 (Contour)
X28.066 Y121.113 (Contour)
X28.113 Y121.154 (Contour)
X28.158 Y121.196 (Contour)
X28.204 Y121.238 (Contour)
X28.248 Y121.280 (Contour)
X28.293 Y121.323 (Contour)
X28.337 Y121.366 (Contour)
X28.381 Y121.410 (Contour)
X28.424 Y121.454 (Contour)
X28.467 Y121.499 (Contour)
X28.509 Y121.543 (Contour)
X28.552 Y121.589 (Contour)
X28.593 Y121.635 (Contour)
X28.634 Y121.681 (Contour)
X28.675 Y121.727 (Contour)
X28.715 Y121.775 (Contour)
X28.755 Y121.822 (Contour)
X28.794 Y121.870 (Contour)
X28.833 Y121.918 (Contour)
X28.871 Y121.966 (Contour)
X28.909 Y122.015 (Contour)
X28.947 Y122.064 (Contour)
X28.983 Y122.114 (Contour)
X29.020 Y122.164 (Contour)
X29.055 Y122.213 (Contour)
X29.090 Y122.263 (Contour)
X29.117 Y122.302 (Contour)
X29.226 Y122.462 (Contour)
X29.338 Y122.640 (Contour)
X29.437 Y122.808 (Contour)
X29.537 Y122.993 (Contour)
X29.624 Y123.166 (Contour)
X29.712 Y123.357 (Contour)
X29.787 Y123.536 (Contour)
X29.862 Y123.733 (Contour)
X29.925 Y123.916 (Contour)
X29.987 Y124.118 (Contour)
X30.038 Y124.305 (Contour)
X30.086 Y124.510 (Contour)
X30.125 Y124.700 (Contour)
X30.160 Y124.908 (Contour)
X30.185 Y125.100 (Contour)
X30.206 Y125.309 (Contour)
X30.219 Y125.503 (Contour)
X30.226 Y125.713 (Contour)
Y125.908 (Contour)
X30.219 Y126.118 (Contour)
X30.206 Y126.312 (Contour)
X30.185 Y126.521 (Contour)
X30.160 Y126.713 (Contour)
X30.125 Y126.921 (Contour)
X30.086 Y127.111 (Contour)
X30.038 Y127.316 (Contour)
X29.987 Y127.503 (Contour)
X29.925 Y127.705 (Contour)
X29.862 Y127.888 (Contour)
X29.787 Y128.085 (Contour)
X29.712 Y128.264 (Contour)
X29.624 Y128.455 (Contour)
X29.537 Y128.628 (Contour)
X29.437 Y128.813 (Contour)
X29.338 Y128.981 (Contour)
X29.226 Y129.159 (Contour)
X29.117 Y129.319 (Contour)
X29.073 Y129.377 (Contour)
X29.075 Y129.379 (Contour)
X29.007 Y129.474 (Contour)
X28.938 Y129.568 (Contour)
X28.866 Y129.661 (Contour)
X28.793 Y129.752 (Contour)
X28.718 Y129.843 (Contour)
X28.642 Y129.931 (Contour)
X28.563 Y130.019 (Contour)
X28.484 Y130.104 (Contour)
X28.402 Y130.189 (Contour)
X28.320 Y130.272 (Contour)
X28.235 Y130.353 (Contour)
X28.150 Y130.433 (Contour)
X28.062 Y130.511 (Contour)
X27.974 Y130.588 (Contour)
X27.884 Y130.663 (Contour)
X27.884 Y146.572 (Contour)
X96.464 (Contour)
X96.464 Y130.663 (Contour)
X96.373 Y130.588 (Contour)
X96.285 Y130.511 (Contour)
X96.197 Y130.433 (Contour)
X96.112 Y130.353 (Contour)
X96.027 Y130.272 (Contour)
X95.945 Y130.189 (Contour)
X95.863 Y130.104 (Contour)
X95.784 Y130.019 (Contour)
X95.706 Y129.931 (Contour)
X95.629 Y129.843 (Contour)
X95.554 Y129.752 (Contour)
X95.481 Y129.661 (Contour)
X95.410 Y129.568 (Contour)
X95.341 Y129.475 (Contour)
X95.272 Y129.379 (Contour)
X95.230 Y129.319 (Contour)
X95.121 Y129.159 (Contour)
X95.009 Y128.981 (Contour)
X94.911 Y128.813 (Contour)
X94.810 Y128.628 (Contour)
X94.723 Y128.455 (Contour)
X94.635 Y128.264 (Contour)
X94.560 Y128.085 (Contour)
X94.485 Y127.888 (Contour)
X94.422 Y127.705 (Contour)
X94.360 Y127.503 (Contour)
X94.309 Y127.316 (Contour)
X94.261 Y127.111 (Contour)
X94.222 Y126.921 (Contour)
X94.188 Y126.713 (Contour)
X94.162 Y126.521 (Contour)
X94.141 Y126.312 (Contour)
X94.128 Y126.118 (Contour)
X94.121 Y125.908 (Contour)
Y125.713 (Contour)
X94.128 Y125.503 (Contour)
X94.141 Y125.309 (Contour)
X94.162 Y125.100 (Contour)
X94.188 Y124.908 (Contour)
X94.222 Y124.700 (Contour)
X94.261 Y124.510 (Contour)
X94.309 Y124.305 (Contour)
X94.360 Y124.118 (Contour)
X94.422 Y123.916 (Contour)
X94.485 Y123.733 (Contour)
X94.560 Y123.536 (Contour)
X94.635 Y123.357 (Contour)
X94.723 Y123.166 (Contour)
X94.810 Y122.993 (Contour)
X94.911 Y122.808 (Contour)
X95.009 Y122.640 (Contour)
X95.121 Y122.462 (Contour)
X95.230 Y122.302 (Contour)
X95.257 Y122.266 (Contour)
X95.256 Y122.265 (Contour)
X95.292 Y122.214 (Contour)
X95.327 Y122.164 (Contour)
X95.364 Y122.114 (Contour)
X95.401 Y122.064 (Contour)
X95.438 Y122.015 (Contour)
X95.476 Y121.966 (Contour)
X95.514 Y121.918 (Contour)
X95.553 Y121.870 (Contour)
X95.593 Y121.822 (Contour)
X95.632 Y121.775 (Contour)
X95.672 Y121.727 (Contour)
X95.713 Y121.681 (Contour)
X95.754 Y121.635 (Contour)
X95.796 Y121.589 (Contour)
X95.838 Y121.543 (Contour)
X95.880 Y121.499 (Contour)
X95.923 Y121.454 (Contour)
X95.966 Y121.410 (Contour)
X96.010 Y121.366 (Contour)
X96.054 Y121.323 (Contour)
X96.099 Y121.280 (Contour)
X96.143 Y121.238 (Contour)
X96.189 Y121.196 (Contour)
X96.235 Y121.154 (Contour)
X96.281 Y121.113 (Contour)
X96.327 Y121.072 (Contour)
X96.375 Y121.032 (Contour)
X96.422 Y120.993 (Contour)
X96.470 Y120.953 (Contour)
X96.518 Y120.914 (Contour)
X96.566 Y120.876 (Contour)
X96.615 Y120.838 (Contour)
X96.664 Y120.801 (Contour)
X96.714 Y120.764 (Contour)
X96.764 Y120.727 (Contour)
X96.813 Y120.692 (Contour)
X96.863 Y120.657 (Contour)
X96.902 Y120.630 (Contour)
X97.062 Y120.521 (Contour)
X97.240 Y120.409 (Contour)
X97.408 Y120.311 (Contour)
X97.593 Y120.210 (Contour)
X97.766 Y120.123 (Contour)
X97.957 Y120.035 (Contour)
X98.136 Y119.960 (Contour)
X98.333 Y119.885 (Contour)
X98.516 Y119.822 (Contour)
X98.718 Y119.760 (Contour)
X98.905 Y119.709 (Contour)
X99.110 Y119.661 (Contour)
X99.300 Y119.622 (Contour)
X99.508 Y119.588 (Contour)
X99.700 Y119.562 (Contour)
X99.909 Y119.541 (Contour)
X100.103 Y119.528 (Contour)
X100.313 Y119.521 (Contour)
X100.508 (Contour)
X100.718 Y119.528 (Contour)
X100.912 Y119.541 (Contour)
X101.121 Y119.562 (Contour)
X101.313 Y119.588 (Contour)
X101.521 Y119.622 (Contour)
X101.711 Y119.661 (Contour)
X101.916 Y119.709 (Contour)
X102.103 Y119.760 (Contour)
X102.305 Y119.822 (Contour)
X102.488 Y119.885 (Contour)
X102.685 Y119.960 (Contour)
X102.864 Y120.035 (Contour)
X103.055 Y120.123 (Contour)
X103.228 Y120.210 (Contour)
X103.413 Y120.311 (Contour)
X103.581 Y120.409 (Contour)
X103.759 Y120.521 (Contour)
X103.919 Y120.630 (Contour)
X103.977 Y120.674 (Contour)
X103.979 Y120.672 (Contour)
X104.074 Y120.740 (Contour)
X104.168 Y120.810 (Contour)
X104.261 Y120.881 (Contour)
X104.352 Y120.954 (Contour)
X104.443 Y121.029 (Contour)
X104.531 Y121.106 (Contour)
X104.619 Y121.184 (Contour)
X104.704 Y121.263 (Contour)
X104.789 Y121.345 (Contour)
X104.872 Y121.427 (Contour)
X104.953 Y121.512 (Contour)
X105.033 Y121.597 (Contour)
X105.111 Y121.685 (Contour)
X105.188 Y121.773 (Contour)
X105.263 Y121.864 (Contour)
X121.172 Y121.864 (Contour)
Y27.884 (Contour)
X105.263 Y27.884 (Contour)
X105.188 Y27.974 (Contour)
X105.111 Y28.062 (Contour)
X105.033 Y28.150 (Contour)
X104.953 Y28.235 (Contour)
X104.872 Y28.320 (Contour)
X104.789 Y28.402 (Contour)
X104.704 Y28.484 (Contour)
X104.619 Y28.563 (Contour)
X104.531 Y28.642 (Contour)
X104.443 Y28.718 (Contour)
X104.352 Y28.793 (Contour)
X104.261 Y28.866 (Contour)
X104.168 Y28.938 (Contour)
X104.075 Y29.007 (Contour)
X103.979 Y29.075 (Contour)
X103.919 Y29.117 (Contour)
X103.759 Y29.226 (Contour)
X103.581 Y29.338 (Contour)
X103.413 Y29.437 (Contour)
X103.228 Y29.537 (Contour)
X103.055 Y29.624 (Contour)
X102.864 Y29.712 (Contour)
X102.685 Y29.787 (Contour)
X102.488 Y29.862 (Contour)
X102.305 Y29.925 (Contour)
X102.103 Y29.987 (Contour)
X101.916 Y30.038 (Contour)
X101.711 Y30.086 (Contour)
X101.521 Y30.125 (Contour)
X101.313 Y30.160 (Contour)
X101.121 Y30.185 (Contour)
X100.912 Y30.206 (Contour)
X100.718 Y30.219 (Contour)
X100.508 Y30.226 (Contour)
X100.313 (Contour)
X100.103 Y30.219 (Contour)
X99.909 Y30.206 (Contour)
X99.700 Y30.185 (Contour)
X99.508 Y30.160 (Contour)
X99.300 Y30.125 (Contour)
X99.110 Y30.086 (Contour)
X98.905 Y30.038 (Contour)
X98.718 Y29.987 (Contour)
X98.516 Y29.925 (Contour)
X98.333 Y29.862 (Contour)
X98.136 Y29.787 (Contour)
X97.957 Y29.712 (Contour)
X97.766 Y29.624 (Contour)
X97.593 Y29.537 (Contour)
X97.408 Y29.437 (Contour)
X97.240 Y29.338 (Contour)
X97.062 Y29.226 (Contour)
X96.902 Y29.117 (Contour)
X96.866 Y29.090 (Contour)
X96.865 Y29.091 (Contour)
X96.814 Y29.056 (Contour)
X96.764 Y29.020 (Contour)
X96.714 Y28.983 (Contour)
X96.664 Y28.947 (Contour)
X96.615 Y28.909 (Contour)
X96.566 Y28.871 (Contour)
X96.518 Y28.833 (Contour)
X96.470 Y28.794 (Contour)
X96.422 Y28.755 (Contour)
X96.375 Y28.715 (Contour)
X96.327 Y28.675 (Contour)
X96.281 Y28.634 (Contour)
X96.235 Y28.593 (Contour)
X96.189 Y28.552 (Contour)
X96.143 Y28.509 (Contour)
X96.099 Y28.467 (Contour)
X96.054 Y28.424 (Contour)
X96.010 Y28.381 (Contour)
X95.966 Y28.337 (Contour)
X95.923 Y28.293 (Contour)
X95.880 Y28.248 (Contour)
X95.838 Y28.204 (Contour)
X95.796 Y28.158 (Contour)
X95.754 Y28.113 (Contour)
X95.713 Y28.066 (Contour)
X95.672 Y28.020 (Contour)
X95.632 Y27.973 (Contour)
X95.593 Y27.926 (Contour)
X95.553 Y27.878 (Contour)
X95.514 Y27.830 (Contour)
X95.476 Y27.781 (Contour)
X95.438 Y27.732 (Contour)
X95.401 Y27.683 (Contour)
X95.364 Y27.634 (Contour)
X95.327 Y27.583 (Contour)
X95.292 Y27.535 (Contour)
X95.257 Y27.484 (Contour)
X95.230 Y27.446 (Contour)
X95.121 Y27.285 (Contour)
X95.009 Y27.107 (Contour)
X94.911 Y26.940 (Contour)
X94.810 Y26.755 (Contour)
X94.723 Y26.581 (Contour)
X94.635 Y26.390 (Contour)
X94.560 Y26.211 (Contour)
X94.485 Y26.014 (Contour)
X94.422 Y25.831 (Contour)
X94.360 Y25.630 (Contour)
X94.309 Y25.442 (Contour)
X94.261 Y25.237 (Contour)
X94.222 Y25.047 (Contour)
X94.188 Y24.840 (Contour)
X94.162 Y24.647 (Contour)
X94.141 Y24.438 (Contour)
X94.128 Y24.244 (Contour)
X94.121 Y24.034 (Contour)
Y23.840 (Contour)
X94.128 Y23.629 (Contour)
X94.141 Y23.436 (Contour)
X94.162 Y23.226 (Contour)
X94.188 Y23.034 (Contour)
X94.222 Y22.826 (Contour)
X94.261 Y22.636 (Contour)
X94.309 Y22.431 (Contour)
X94.360 Y22.244 (Contour)
X94.422 Y22.043 (Contour)
X94.485 Y21.859 (Contour)
X94.560 Y21.662 (Contour)
X94.635 Y21.484 (Contour)
X94.723 Y21.292 (Contour)
X94.810 Y21.119 (Contour)
X94.911 Y20.934 (Contour)
X95.009 Y20.766 (Contour)
X95.121 Y20.588 (Contour)
X95.230 Y20.428 (Contour)
X95.274 Y20.370 (Contour)
X95.272 Y20.368 (Contour)
X95.340 Y20.273 (Contour)
X95.410 Y20.179 (Contour)
X95.481 Y20.086 (Contour)
X95.554 Y19.995 (Contour)
X95.629 Y19.904 (Contour)
X95.706 Y19.816 (Contour)
X95.784 Y19.728 (Contour)
X95.863 Y19.643 (Contour)
X95.945 Y19.558 (Contour)
X96.027 Y19.476 (Contour)
X96.112 Y19.394 (Contour)
X96.197 Y19.314 (Contour)
X96.285 Y19.236 (Contour)
X96.373 Y19.160 (Contour)
X96.464 Y19.084 (Contour)
X96.464 Y3.175 (Contour)
X27.884 (Contour)
X27.884 Y19.084 (Contour)
X27.974 Y19.160 (Contour)
X28.062 Y19.236 (Contour)
X28.150 Y19.314 (Contour)
X28.235 Y19.394 (Contour)
X28.320 Y19.476 (Contour)
X28.402 Y19.558 (Contour)
X28.484 Y19.643 (Contour)
X28.563 Y19.728 (Contour)
X28.642 Y19.816 (Contour)
X28.718 Y19.904 (Contour)
X28.793 Y19.995 (Contour)
X28.866 Y20.086 (Contour)
X28.938 Y20.179 (Contour)
X29.007 Y20.272 (Contour)
X29.075 Y20.368 (Contour)
X29.117 Y20.428 (Contour)
X29.226 Y20.588 (Contour)
X29.338 Y20.766 (Contour)
X29.437 Y20.934 (Contour)
X29.537 Y21.119 (Contour)
X29.624 Y21.292 (Contour)
X29.712 Y21.484 (Contour)
X29.787 Y21.662 (Contour)
X29.862 Y21.859 (Contour)
X29.925 Y22.043 (Contour)
X29.987 Y22.244 (Contour)
X30.038 Y22.431 (Contour)
X30.086 Y22.636 (Contour)
X30.125 Y22.826 (Contour)
X30.160 Y23.034 (Contour)
X30.185 Y23.226 (Contour)
X30.206 Y23.436 (Contour)
X30.219 Y23.629 (Contour)
X30.226 Y23.840 (Contour)
Y24.034 (Contour)
X30.219 Y24.244 (Contour)
X30.206 Y24.438 (Contour)
X30.185 Y24.647 (Contour)
X30.160 Y24.840 (Contour)
X30.125 Y25.047 (Contour)
X30.086 Y25.237 (Contour)
X30.038 Y25.442 (Contour)
X29.987 Y25.630 (Contour)
X29.925 Y25.831 (Contour)
X29.862 Y26.014 (Contour)
X29.787 Y26.211 (Contour)
X29.712 Y26.390 (Contour)
X29.624 Y26.581 (Contour)
X29.537 Y26.755 (Contour)
X29.437 Y26.940 (Contour)
X29.338 Y27.107 (Contour)
X29.226 Y27.285 (Contour)
X29.117 Y27.446 (Contour)
X29.090 Y27.481 (Contour)
X29.091 Y27.482 (Contour)
X29.056 Y27.533 (Contour)
X29.020 Y27.583 (Contour)
X28.983 Y27.634 (Contour)
X28.947 Y27.683 (Contour)
X28.909 Y27.732 (Contour)
X28.871 Y27.781 (Contour)
X28.833 Y27.830 (Contour)
X28.794 Y27.878 (Contour)
X28.755 Y27.926 (Contour)
X28.715 Y27.973 (Contour)
X28.675 Y28.020 (Contour)
X28.634 Y28.066 (Contour)
X28.593 Y28.113 (Contour)
X28.552 Y28.158 (Contour)
X28.509 Y28.204 (Contour)
X28.467 Y28.248 (Contour)
X28.424 Y28.293 (Contour)
X28.381 Y28.337 (Contour)
X28.337 Y28.381 (Contour)
X28.293 Y28.424 (Contour)
X28.248 Y28.467 (Contour)
X28.204 Y28.509 (Contour)
X28.158 Y28.552 (Contour)
X28.113 Y28.593 (Contour)
X28.066 Y28.634 (Contour)
X28.020 Y28.675 (Contour)
X27.973 Y28.715 (Contour)
X27.926 Y28.755 (Contour)
X27.878 Y28.794 (Contour)
X27.830 Y28.833 (Contour)
X27.781 Y28.871 (Contour)
X27.732 Y28.909 (Contour)
X27.683 Y28.947 (Contour)
X27.634 Y28.983 (Contour)
X27.583 Y29.020 (Contour)
X27.535 Y29.055 (Contour)
X27.484 Y29.090 (Contour)
X27.446 Y29.117 (Contour)
X27.285 Y29.226 (Contour)
X27.107 Y29.338 (Contour)
X26.940 Y29.437 (Contour)
X26.755 Y29.537 (Contour)
X26.581 Y29.624 (Contour)
X26.390 Y29.712 (Contour)
X26.211 Y29.787 (Contour)
X26.014 Y29.862 (Contour)
X25.831 Y29.925 (Contour)
X25.630 Y29.987 (Contour)
X25.442 Y30.038 (Contour)
X25.237 Y30.086 (Contour)
X25.047 Y30.125 (Contour)
X24.840 Y30.160 (Contour)
X24.647 Y30.185 (Contour)
X24.438 Y30.206 (Contour)
X24.244 Y30.219 (Contour)
X24.034 Y30.226 (Contour)
X23.840 (Contour)
X23.629 Y30.219 (Contour)
X23.436 Y30.206 (Contour)
X23.226 Y30.185 (Contour)
X23.034 Y30.160 (Contour)
X22.826 Y30.125 (Contour)
X22.636 Y30.086 (Contour)
X22.431 Y30.038 (Contour)
X22.244 Y29.987 (Contour)
X22.043 Y29.925 (Contour)
X21.859 Y29.862 (Contour)
X21.662 Y29.787 (Contour)
X21.484 Y29.712 (Contour)
X21.292 Y29.624 (Contour)
X21.119 Y29.537 (Contour)
X20.934 Y29.437 (Contour)
X20.766 Y29.338 (Contour)
X20.588 Y29.226 (Contour)
X20.428 Y29.117 (Contour)
X20.370 Y29.073 (Contour)
X20.368 Y29.075 (Contour)
X20.273 Y29.007 (Contour)
X20.179 Y28.938 (Contour)
X20.086 Y28.866 (Contour)
X19.995 Y28.793 (Contour)
X19.904 Y28.718 (Contour)
X19.816 Y28.642 (Contour)
X19.728 Y28.563 (Contour)
X19.643 Y28.484 (Contour)
X19.558 Y28.402 (Contour)
X19.476 Y28.320 (Contour)
X19.394 Y28.235 (Contour)
X19.314 Y28.150 (Contour)
X19.236 Y28.062 (Contour)
X19.160 Y27.974 (Contour)
X19.084 Y27.884 (Contour)
(Contour)
G00 Z5.000 (Lead out)
(Retract)
X502.272 Y29.984 (Lead in)
G01 X495.922 Z-3.000 F600 (Plunge)
X480.160 F2500 (Contour)
Y98.364 (Contour)
X495.922 (Contour)
X495.967 Y98.309 (Contour)
X496.046 Y98.218 (Contour)
X496.125 Y98.131 (Contour)
X496.207 Y98.043 (Contour)
X496.288 Y97.958 (Contour)
X496.373 Y97.873 (Contour)
X496.458 Y97.791 (Contour)
X496.546 Y97.709 (Contour)
X496.634 Y97.631 (Contour)
X496.725 Y97.552 (Contour)
X496.816 Y97.477 (Contour)
X496.909 Y97.402 (Contour)
X497.003 Y97.330 (Contour)
X497.099 Y97.259 (Contour)
X497.194 Y97.191 (Contour)
X497.256 Y97.148 (Contour)
X497.417 Y97.039 (Contour)
X497.600 Y96.923 (Contour)
X497.768 Y96.824 (Contour)
X497.959 Y96.721 (Contour)
X498.132 Y96.634 (Contour)
X498.329 Y96.543 (Contour)
X498.508 Y96.468 (Contour)
X498.711 Y96.391 (Contour)
X498.895 Y96.327 (Contour)
X499.102 Y96.264 (Contour)
X499.289 Y96.213 (Contour)
X499.501 Y96.163 (Contour)
X499.691 Y96.124 (Contour)
X499.905 Y96.089 (Contour)
X500.098 Y96.063 (Contour)
X500.314 Y96.041 (Contour)
X500.507 Y96.028 (Contour)
X500.724 Y96.021 (Contour)
X500.918 (Contour)
X501.135 Y96.028 (Contour)
X501.329 Y96.041 (Contour)
X501.545 Y96.063 (Contour)
X501.737 Y96.089 (Contour)
X501.952 Y96.124 (Contour)
X502.142 Y96.163 (Contour)
X502.353 Y96.213 (Contour)
X502.540 Y96.264 (Contour)
X502.748 Y96.327 (Contour)
X502.932 Y96.391 (Contour)
X503.134 Y96.468 (Contour)
X503.313 Y96.543 (Contour)
X503.511 Y96.634 (Contour)
X503.684 Y96.721 (Contour)
X503.875 Y96.824 (Contour)
X504.042 Y96.923 (Contour)
X504.226 Y97.039 (Contour)
X504.386 Y97.148 (Contour)
X504.423 Y97.176 (Contour)
X504.424 Y97.174 (Contour)
X504.475 Y97.210 (Contour)
X504.527 Y97.247 (Contour)
X504.577 Y97.283 (Contour)
X504.628 Y97.321 (Contour)
X504.677 Y97.359 (Contour)
X504.728 Y97.397 (Contour)
X504.776 Y97.436 (Contour)
X504.826 Y97.476 (Contour)
X504.874 Y97.515 (Contour)
X504.922 Y97.556 (Contour)
X504.969 Y97.596 (Contour)
X505.017 Y97.638 (Contour)
X505.064 Y97.680 (Contour)
X505.111 Y97.722 (Contour)
X505.156 Y97.764 (Contour)
X505.202 Y97.808 (Contour)
X505.247 Y97.851 (Contour)
X505.293 Y97.895 (Contour)
X505.336 Y97.939 (Contour)
X505.381 Y97.985 (Contour)
X505.424 Y98.029 (Contour)
X505.467 Y98.076 (Contour)
X505.510 Y98.121 (Contour)
X505.552 Y98.168 (Contour)
X505.594 Y98.215 (Contour)
X505.635 Y98.262 (Contour)
X505.676 Y98.310 (Contour)
X505.717 Y98.358 (Contour)
X505.756 Y98.406 (Contour)
X505.796 Y98.456 (Contour)
X505.834 Y98.504 (Contour)
X505.873 Y98.554 (Contour)
X505.911 Y98.604 (Contour)
X505.949 Y98.655 (Contour)
X505.985 Y98.705 (Contour)
X506.021 Y98.755 (Contour)
X506.057 Y98.806 (Contour)
X506.084 Y98.845 (Contour)
X506.193 Y99.006 (Contour)
X506.309 Y99.190 (Contour)
X506.407 Y99.357 (Contour)
X506.511 Y99.548 (Contour)
X506.598 Y99.721 (Contour)
X506.689 Y99.919 (Contour)
X506.764 Y100.097 (Contour)
X506.841 Y100.300 (Contour)
X506.904 Y100.484 (Contour)
X506.968 Y100.691 (Contour)
X507.019 Y100.879 (Contour)
X507.069 Y101.090 (Contour)
X507.107 Y101.280 (Contour)
X507.143 Y101.494 (Contour)
X507.169 Y101.687 (Contour)
X507.191 Y101.903 (Contour)
X507.203 Y102.096 (Contour)
X507.211 Y102.313 (Contour)
Y102.508 (Contour)
X507.203 Y102.725 (Contour)
X507.191 Y102.918 (Contour)
X507.169 Y103.134 (Contour)
X507.143 Y103.327 (Contour)
X507.107 Y103.541 (Contour)
X507.069 Y103.731 (Contour)
X507.019 Y103.942 (Contour)
X506.968 Y104.130 (Contour)
X506.904 Y104.337 (Contour)
X506.841 Y104.521 (Contour)
X506.764 Y104.724 (Contour)
X506.689 Y104.902 (Contour)
X506.598 Y105.100 (Contour)
X506.511 Y105.273 (Contour)
X506.407 Y105.464 (Contour)
X506.309 Y105.631 (Contour)
X506.193 Y105.815 (Contour)
X506.084 Y105.976 (Contour)
X506.039 Y106.035 (Contour)
X506.041 Y106.037 (Contour)
X505.973 Y106.133 (Contour)
X505.902 Y106.229 (Contour)
X505.830 Y106.322 (Contour)
X505.755 Y106.416 (Contour)
X505.679 Y106.507 (Contour)
X505.601 Y106.598 (Contour)
X505.522 Y106.686 (Contour)
X505.441 Y106.774 (Contour)
X505.359 Y106.859 (Contour)
X505.274 Y106.944 (Contour)
X505.189 Y107.025 (Contour)
X505.101 Y107.107 (Contour)
X505.014 Y107.186 (Contour)
X504.923 Y107.264 (Contour)
X504.868 Y107.310 (Contour)
Y123.072 (Contour)
X598.648 (Contour)
Y107.310 (Contour)
X598.594 Y107.264 (Contour)
X598.503 Y107.186 (Contour)
X598.415 Y107.107 (Contour)
X598.327 Y107.025 (Contour)
X598.243 Y106.944 (Contour)
X598.158 Y106.859 (Contour)
X598.076 Y106.774 (Contour)
X597.994 Y106.686 (Contour)
X597.916 Y106.598 (Contour)
X597.837 Y106.507 (Contour)
X597.762 Y106.416 (Contour)
X597.687 Y106.322 (Contour)
X597.615 Y106.229 (Contour)
X597.544 Y106.133 (Contour)
X597.475 Y106.037 (Contour)
X597.432 Y105.976 (Contour)
X597.323 Y105.815 (Contour)
X597.207 Y105.631 (Contour)
X597.109 Y105.464 (Contour)
X597.005 Y105.273 (Contour)
X596.919 Y105.100 (Contour)
X596.828 Y104.902 (Contour)
X596.753 Y104.724 (Contour)
X596.675 Y104.521 (Contour)
X596.612 Y104.337 (Contour)
X596.548 Y104.130 (Contour)
X596.497 Y103.942 (Contour)
X596.447 Y103.731 (Contour)
X596.409 Y103.541 (Contour)
X596.373 Y103.327 (Contour)
X596.347 Y103.134 (Contour)
X596.326 Y102.918 (Contour)
X596.313 Y102.725 (Contour)
X596.306 Y102.508 (Contour)
Y102.313 (Contour)
X596.313 Y102.096 (Contour)
X596.326 Y101.903 (Contour)
X596.347 Y101.687 (Contour)
X596.373 Y101.494 (Contour)
X596.409 Y101.280 (Contour)
X596.447 Y101.090 (Contour)
X596.497 Y100.879 (Contour)
X596.548 Y100.691 (Contour)
X596.612 Y100.484 (Contour)
X596.675 Y100.300 (Contour)
X596.753 Y100.097 (Contour)
X596.828 Y99.919 (Contour)
X596.919 Y99.721 (Contour)
X597.005 Y99.548 (Contour)
X597.109 Y99.357 (Contour)
X597.207 Y99.190 (Contour)
X597.323 Y99.006 (Contour)
X597.432 Y98.845 (Contour)
X597.460 Y98.809 (Contour)
X597.459 Y98.807 (Contour)
X597.494 Y98.757 (Contour)
X597.531 Y98.705 (Contour)
X597.568 Y98.655 (Contour)
X597.606 Y98.604 (Contour)
X597.643 Y98.554 (Contour)
X597.682 Y98.504 (Contour)
X597.721 Y98.456 (Contour)
X597.760 Y98.406 (Contour)
X597.800 Y98.358 (Contour)
X597.841 Y98.310 (Contour)
X597.881 Y98.262 (Contour)
X597.923 Y98.215 (Contour)
X597.964 Y98.168 (Contour)
X598.007 Y98.121 (Contour)
X598.049 Y98.076 (Contour)
X598.093 Y98.029 (Contour)
X598.136 Y97.985 (Contour)
X598.180 Y97.939 (Contour)
X598.224 Y97.895 (Contour)
X598.269 Y97.851 (Contour)
X598.314 Y97.808 (Contour)
X598.360 Y97.764 (Contour)
X598.406 Y97.722 (Contour)
X598.453 Y97.680 (Contour)
X598.499 Y97.638 (Contour)
X598.547 Y97.596 (Contour)
X598.594 Y97.556 (Contour)
X598.643 Y97.515 (Contour)
X598.691 Y97.476 (Contour)
X598.740 Y97.436 (Contour)
X598.789 Y97.397 (Contour)
X598.839 Y97.359 (Contour)
X598.888 Y97.321 (Contour)
X598.939 Y97.283 (Contour)
X598.990 Y97.247 (Contour)
X599.040 Y97.211 (Contour)
X599.091 Y97.175 (Contour)
X599.130 Y97.148 (Contour)
X599.291 Y97.039 (Contour)
X599.474 Y96.923 (Contour)
X599.642 Y96.824 (Contour)
X599.832 Y96.721 (Contour)
X600.006 Y96.634 (Contour)
X600.203 Y96.543 (Contour)
X600.382 Y96.468 (Contour)
X600.585 Y96.391 (Contour)
X600.768 Y96.327 (Contour)
X600.976 Y96.264 (Contour)
X601.163 Y96.213 (Contour)
X601.375 Y96.163 (Contour)
X601.565 Y96.124 (Contour)
X601.779 Y96.089 (Contour)
X601.971 Y96.063 (Contour)
X602.187 Y96.041 (Contour)
X602.381 Y96.028 (Contour)
X602.598 Y96.021 (Contour)
X602.792 (Contour)
X603.009 Y96.028 (Contour)
X603.203 Y96.041 (Contour)
X603.419 Y96.063 (Contour)
X603.611 Y96.089 (Contour)
X603.825 Y96.124 (Contour)
X604.016 Y96.163 (Contour)
X604.227 Y96.213 (Contour)
X604.414 Y96.264 (Contour)
X604.622 Y96.327 (Contour)
X604.805 Y96.391 (Contour)
X605.008 Y96.468 (Contour)
X605.187 Y96.543 (Contour)
X605.384 Y96.634 (Contour)
X605.558 Y96.721 (Contour)
X605.749 Y96.824 (Contour)
X605.916 Y96.923 (Contour)
X606.100 Y97.039 (Contour)
X606.260 Y97.148 (Contour)
X606.320 Y97.193 (Contour)
X606.321 Y97.190 (Contour)
X606.417 Y97.259 (Contour)
X606.514 Y97.330 (Contour)
X606.607 Y97.402 (Contour)
X606.701 Y97.477 (Contour)
X606.791 Y97.552 (Contour)
X606.883 Y97.631 (Contour)
X606.970 Y97.709 (Contour)
X607.058 Y97.791 (Contour)
X607.143 Y97.873 (Contour)
X607.228 Y97.958 (Contour)
X607.310 Y98.043 (Contour)
X607.392 Y98.131 (Contour)
X607.470 Y98.218 (Contour)
X607.549 Y98.309 (Contour)
X607.594 Y98.364 (Contour)
X623.357 (Contour)
Y29.984 (Contour)
X607.594 (Contour)
X607.549 Y30.038 (Contour)
X607.470 Y30.129 (Contour)
X607.392 Y30.217 (Contour)
X607.310 Y30.305 (Contour)
X607.228 Y30.389 (Contour)
X607.143 Y30.474 (Contour)
X607.058 Y30.556 (Contour)
X606.970 Y30.638 (Contour)
X606.883 Y30.716 (Contour)
X606.791 Y30.795 (Contour)
X606.701 Y30.870 (Contour)
X606.607 Y30.945 (Contour)
X606.514 Y31.017 (Contour)
X606.418 Y31.088 (Contour)
X606.322 Y31.156 (Contour)
X606.260 Y31.200 (Contour)
X606.100 Y31.309 (Contour)
X605.916 Y31.425 (Contour)
X605.749 Y31.523 (Contour)
X605.558 Y31.626 (Contour)
X605.384 Y31.713 (Contour)
X605.187 Y31.804 (Contour)
X605.008 Y31.879 (Contour)
X604.805 Y31.957 (Contour)
X604.622 Y32.020 (Contour)
X604.414 Y32.084 (Contour)
X604.227 Y32.135 (Contour)
X604.016 Y32.184 (Contour)
X603.825 Y32.223 (Contour)
X603.611 Y32.259 (Contour)
X603.419 Y32.284 (Contour)
X603.203 Y32.306 (Contour)
X603.009 Y32.319 (Contour)
X602.792 Y32.326 (Contour)
X602.598 (Contour)
X602.381 Y32.319 (Contour)
X602.187 Y32.306 (Contour)
X601.971 Y32.284 (Contour)
X601.779 Y32.259 (Contour)
X601.565 Y32.223 (Contour)
X601.375 Y32.184 (Contour)
X601.163 Y32.135 (Contour)
X600.976 Y32.084 (Contour)
X600.768 Y32.020 (Contour)
X600.585 Y31.957 (Contour)
X600.382 Y31.879 (Contour)
X600.203 Y31.804 (Contour)
X600.006 Y31.713 (Contour)
X599.832 Y31.626 (Contour)
X599.642 Y31.523 (Contour)
X599.474 Y31.425 (Contour)
X599.291 Y31.309 (Contour)
X599.130 Y31.200 (Contour)
X599.093 Y31.172 (Contour)
X599.092 Y31.173 (Contour)
X599.041 Y31.138 (Contour)
X598.990 Y31.101 (Contour)
X598.939 Y31.064 (Contour)
X598.888 Y31.026 (Contour)
X598.839 Y30.989 (Contour)
X598.789 Y30.950 (Contour)
X598.740 Y30.911 (Contour)
X598.691 Y30.871 (Contour)
X598.643 Y30.832 (Contour)
X598.594 Y30.791 (Contour)
X598.547 Y30.751 (Contour)
X598.499 Y30.709 (Contour)
X598.453 Y30.668 (Contour)
X598.406 Y30.625 (Contour)
X598.360 Y30.583 (Contour)
X598.314 Y30.539 (Contour)
X598.269 Y30.496 (Contour)
X598.224 Y30.452 (Contour)
X598.180 Y30.408 (Contour)
X598.136 Y30.363 (Contour)
X598.093 Y30.318 (Contour)
X598.049 Y30.272 (Contour)
X598.007 Y30.226 (Contour)
X597.964 Y30.179 (Contour)
X597.923 Y30.133 (Contour)
X597.881 Y30.085 (Contour)
X597.841 Y30.038 (Contour)
X597.800 Y29.989 (Contour)
X597.760 Y29.941 (Contour)
X597.721 Y29.892 (Contour)
X597.682 Y29.843 (Contour)
X597.643 Y29.793 (Contour)
X597.606 Y29.743 (Contour)
X597.568 Y29.692 (Contour)
X597.531 Y29.642 (Contour)
X597.495 Y29.592 (Contour)
X597.460 Y29.541 (Contour)
X597.432 Y29.502 (Contour)
X597.323 Y29.341 (Contour)
X597.207 Y29.158 (Contour)
X597.109 Y28.990 (Contour)
X597.005 Y28.799 (Contour)
X596.919 Y28.626 (Contour)
X596.828 Y28.429 (Contour)
X596.753 Y28.250 (Contour)
X596.675 Y28.047 (Contour)
X596.612 Y27.863 (Contour)
X596.548 Y27.656 (Contour)
X596.497 Y27.469 (Contour)
X596.447 Y27.257 (Contour)
X596.409 Y27.067 (Contour)
X596.373 Y26.853 (Contour)
X596.347 Y26.660 (Contour)
X596.326 Y26.444 (Contour)
X596.313 Y26.251 (Contour)
X596.306 Y26.034 (Contour)
Y25.840 (Contour)
X596.313 Y25.623 (Contour)
X596.326 Y25.429 (Contour)
X596.347 Y25.213 (Contour)
X596.373 Y25.021 (Contour)
X596.409 Y24.806 (Contour)
X596.447 Y24.616 (Contour)
X596.497 Y24.405 (Contour)
X596.548 Y24.218 (Contour)
X596.612 Y24.010 (Contour)
X596.675 Y23.827 (Contour)
X596.753 Y23.624 (Contour)
X596.828 Y23.445 (Contour)
X596.919 Y23.247 (Contour)
X597.005 Y23.074 (Contour)
X597.109 Y22.883 (Contour)
X597.207 Y22.716 (Contour)
X597.323 Y22.532 (Contour)
X597.432 Y22.372 (Contour)
X597.477 Y22.312 (Contour)
X597.475 Y22.310 (Contour)
X597.543 Y22.215 (Contour)
X597.615 Y22.118 (Contour)
X597.687 Y22.025 (Contour)
X597.762 Y21.931 (Contour)
X597.837 Y21.840 (Contour)
X597.916 Y21.749 (Contour)
X597.994 Y21.662 (Contour)
X598.076 Y21.573 (Contour)
X598.158 Y21.489 (Contour)
X598.243 Y21.404 (Contour)
X598.327 Y21.322 (Contour)
X598.415 Y21.240 (Contour)
X598.503 Y21.161 (Contour)
X598.594 Y21.083 (Contour)
X598.648 Y21.038 (Contour)
Y5.275 (Contour)
X504.868 (Contour)
Y21.038 (Contour)
X504.923 Y21.083 (Contour)
X505.014 Y21.161 (Contour)
X505.101 Y21.240 (Contour)
X505.189 Y21.322 (Contour)
X505.274 Y21.404 (Contour)
X505.359 Y21.489 (Contour)
X505.441 Y21.573 (Contour)
X505.522 Y21.662 (Contour)
X505.601 Y21.749 (Contour)
X505.679 Y21.840 (Contour)
X505.755 Y21.931 (Contour)
X505.830 Y22.025 (Contour)
X505.902 Y22.118 (Contour)
X505.973 Y22.214 (Contour)
X506.041 Y22.310 (Contour)
X506.084 Y22.372 (Contour)
X506.193 Y22.532 (Contour)
X506.309 Y22.716 (Contour)
X506.407 Y22.883 (Contour)
X506.511 Y23.074 (Contour)
X506.598 Y23.247 (Contour)
X506.689 Y23.445 (Contour)
X506.764 Y23.624 (Contour)
X506.841 Y23.827 (Contour)
X506.904 Y24.010 (Contour)
X506.968 Y24.218 (Contour)
X507.019 Y24.405 (Contour)
X507.069 Y24.616 (Contour)
X507.107 Y24.806 (Contour)
X507.143 Y25.021 (Contour)
X507.169 Y25.213 (Contour)
X507.191 Y25.429 (Contour)
X507.203 Y25.623 (Contour)
X507.211 Y25.840 (Contour)
Y26.034 (Contour)
X507.203 Y26.251 (Contour)
X507.191 Y26.444 (Contour)
X507.169 Y26.660 (Contour)
X507.143 Y26.853 (Contour)
X507.107 Y27.067 (Contour)
X507.069 Y27.257 (Contour)
X507.019 Y27.469 (Contour)
X506.968 Y27.656 (Contour)
X506.904 Y27.863 (Contour)
X506.841 Y28.047 (Contour)
X506.764 Y28.250 (Contour)
X506.689 Y28.429 (Contour)
X506.598 Y28.626 (Contour)
X506.511 Y28.799 (Contour)
X506.407 Y28.990 (Contour)
X506.309 Y29.158 (Contour)
X506.193 Y29.341 (Contour)
X506.084 Y29.502 (Contour)
X506.056 Y29.539 (Contour)
X506.058 Y29.540 (Contour)
X506.022 Y29.591 (Contour)
X505.985 Y29.642 (Contour)
X505.949 Y29.692 (Contour)
X505.911 Y29.743 (Contour)
X505.873 Y29.793 (Contour)
X505.834 Y29.843 (Contour)
X505.796 Y29.892 (Contour)
X505.756 Y29.941 (Contour)
X505.717 Y29.989 (Contour)
X505.676 Y30.038 (Contour)
X505.635 Y30.085 (Contour)
X505.594 Y30.133 (Contour)
X505.552 Y30.179 (Contour)
X505.510 Y30.226 (Contour)
X505.467 Y30.272 (Contour)
X505.424 Y30.318 (Contour)
X505.381 Y30.363 (Contour)
X505.336 Y30.408 (Contour)
X505.293 Y30.452 (Contour)
X505.247 Y30.496 (Contour)
X505.202 Y30.539 (Contour)
X505.156 Y30.583 (Contour)
X505.111 Y30.625 (Contour)
X505.064 Y30.668 (Contour)
X505.017 Y30.709 (Contour)
X504.969 Y30.751 (Contour)
X504.922 Y30.791 (Contour)
X504.874 Y30.832 (Contour)
X504.826 Y30.871 (Contour)
X504.776 Y30.911 (Contour)
X504.728 Y30.950 (Contour)
X504.677 Y30.989 (Contour)
X504.628 Y31.026 (Contour)
X504.577 Y31.064 (Contour)
X504.527 Y31.101 (Contour)
X504.477 Y31.137 (Contour)
X504.426 Y31.172 (Contour)
X504.386 Y31.200 (Contour)
X504.226 Y31.309 (Contour)
X504.042 Y31.425 (Contour)
X503.875 Y31.523 (Contour)
X503.684 Y31.626 (Contour)
X503.511 Y31.713 (Contour)
X503.313 Y31.804 (Contour)
X503.134 Y31.879 (Contour)
X502.932 Y31.957 (Contour)
X502.748 Y32.020 (Contour)
X502.540 Y32.084 (Contour)
X502.353 Y32.135 (Contour)
X502.142 Y32.184 (Contour)
X501.952 Y32.223 (Contour)
X501.737 Y32.259 (Contour)
X501.545 Y32.284 (Contour)
X501.329 Y32.306 (Contour)
X501.135 Y32.319 (Contour)
X500.918 Y32.326 (Contour)
X500.724 (Contour)
X500.507 Y32.319 (Contour)
X500.314 Y32.306 (Contour)
X500.098 Y32.284 (Contour)
X499.905 Y32.259 (Contour)
X499.691 Y32.223 (Contour)
X499.501 Y32.184 (Contour)
X499.289 Y32.135 (Contour)
X499.102 Y32.084 (Contour)
X498.895 Y32.020 (Contour)
X498.711 Y31.957 (Contour)
X498.508 Y31.879 (Contour)
X498.329 Y31.804 (Contour)
X498.132 Y31.713 (Contour)
X497.959 Y31.626 (Contour)
X497.768 Y31.523 (Contour)
X497.600 Y31.425 (Contour)
X497.417 Y31.309 (Contour)
X497.256 Y31.200 (Contour)
X497.197 Y31.155 (Contour)
X497.195 Y31.157 (Contour)
X497.099 Y31.088 (Contour)
X497.003 Y31.017 (Contour)
X496.909 Y30.945 (Contour)
X496.816 Y30.870 (Contour)
X496.725 Y30.795 (Contour)
X496.634 Y30.716 (Contour)
X496.546 Y30.638 (Contour)
X496.458 Y30.556 (Contour)
X496.373 Y30.474 (Contour)
X496.288 Y30.389 (Contour)
X496.207 Y30.305 (Contour)
X496.125 Y30.217 (Contour)
X496.046 Y30.129 (Contour)
X495.967 Y30.038 (Contour)
X495.922 Y29.984 (Contour)
(Contour)
G00 Z5.000 (Lead out)
X502.319 Y29.884 (Lead in)
G01 X495.969 Z-3.000 F600 (Plunge)
X480.060 F2500 (Contour)
Y98.464 (Contour)
X495.969 (Contour)
X496.044 Y98.373 (Contour)
X496.121 Y98.285 (Contour)
X496.199 Y98.197 (Contour)
X496.278 Y98.112 (Contour)
X496.360 Y98.027 (Contour)
X496.443 Y97.945 (Contour)
X496.527 Y97.863 (Contour)
X496.613 Y97.784 (Contour)
X496.701 Y97.706 (Contour)
X496.789 Y97.629 (Contour)
X496.879 Y97.554 (Contour)
X496.970 Y97.481 (Contour)
X497.064 Y97.410 (Contour)
X497.157 Y97.341 (Contour)
X497.252 Y97.272 (Contour)
X497.312 Y97.230 (Contour)
X497.473 Y97.121 (Contour)
X497.651 Y97.009 (Contour)
X497.818 Y96.911 (Contour)
X498.003 Y96.810 (Contour)
X498.177 Y96.723 (Contour)
X498.368 Y96.635 (Contour)
X498.547 Y96.560 (Contour)
X498.744 Y96.485 (Contour)
X498.927 Y96.422 (Contour)
X499.128 Y96.360 (Contour)
X499.316 Y96.309 (Contour)
X499.521 Y96.261 (Contour)
X499.711 Y96.222 (Contour)
X499.918 Y96.188 (Contour)
X500.111 Y96.162 (Contour)
X500.320 Y96.141 (Contour)
X500.514 Y96.128 (Contour)
X500.724 Y96.121 (Contour)
X500.918 (Contour)
X501.129 Y96.128 (Contour)
X501.322 Y96.141 (Contour)
X501.532 Y96.162 (Contour)
X501.724 Y96.188 (Contour)
X501.932 Y96.222 (Contour)
X502.122 Y96.261 (Contour)
X502.327 Y96.309 (Contour)
X502.514 Y96.360 (Contour)
X502.715 Y96.422 (Contour)
X502.899 Y96.485 (Contour)
X503.096 Y96.560 (Contour)
X503.275 Y96.635 (Contour)
X503.466 Y96.723 (Contour)
X503.639 Y96.810 (Contour)
X503.824 Y96.911 (Contour)
X503.992 Y97.009 (Contour)
X504.170 Y97.121 (Contour)
X504.330 Y97.230 (Contour)
X504.366 Y97.257 (Contour)
X504.367 Y97.256 (Contour)
X504.418 Y97.292 (Contour)
X504.468 Y97.327 (Contour)
X504.518 Y97.364 (Contour)
X504.568 Y97.401 (Contour)
X504.617 Y97.438 (Contour)
X504.666 Y97.476 (Contour)
X504.714 Y97.514 (Contour)
X504.762 Y97.553 (Contour)
X504.810 Y97.593 (Contour)
X504.857 Y97.632 (Contour)
X504.904 Y97.672 (Contour)
X504.951 Y97.713 (Contour)
X504.997 Y97.754 (Contour)
X505.043 Y97.796 (Contour)
X505.088 Y97.838 (Contour)
X505.133 Y97.880 (Contour)
X505.178 Y97.923 (Contour)
X505.222 Y97.966 (Contour)
X505.266 Y98.010 (Contour)
X505.309 Y98.054 (Contour)
X505.352 Y98.099 (Contour)
X505.394 Y98.143 (Contour)
X505.436 Y98.189 (Contour)
X505.478 Y98.235 (Contour)
X505.519 Y98.281 (Contour)
X505.559 Y98.327 (Contour)
X505.600 Y98.375 (Contour)
X505.639 Y98.422 (Contour)
X505.679 Y98.470 (Contour)
X505.717 Y98.518 (Contour)
X505.756 Y98.566 (Contour)
X505.794 Y98.615 (Contour)
X505.831 Y98.664 (Contour)
X505.868 Y98.714 (Contour)
X505.905 Y98.764 (Contour)
X505.939 Y98.813 (Contour)
X505.975 Y98.863 (Contour)
X506.001 Y98.902 (Contour)
X506.111 Y99.062 (Contour)
X506.223 Y99.240 (Contour)
X506.321 Y99.408 (Contour)
X506.422 Y99.593 (Contour)
X506.508 Y99.766 (Contour)
X506.596 Y99.957 (Contour)
X506.672 Y100.136 (Contour)
X506.747 Y100.333 (Contour)
X506.810 Y100.516 (Contour)
X506.872 Y100.718 (Contour)
X506.923 Y100.905 (Contour)
X506.971 Y101.110 (Contour)
X507.009 Y101.300 (Contour)
X507.044 Y101.508 (Contour)
X507.070 Y101.700 (Contour)
X507.091 Y101.909 (Contour)
X507.104 Y102.103 (Contour)
X507.111 Y102.313 (Contour)
Y102.508 (Contour)
X507.104 Y102.718 (Contour)
X507.091 Y102.912 (Contour)
X507.070 Y103.121 (Contour)
X507.044 Y103.313 (Contour)
X507.009 Y103.521 (Contour)
X506.971 Y103.711 (Contour)
X506.923 Y103.916 (Contour)
X506.872 Y104.103 (Contour)
X506.810 Y104.305 (Contour)
X506.747 Y104.488 (Contour)
X506.672 Y104.685 (Contour)
X506.596 Y104.864 (Contour)
X506.508 Y105.055 (Contour)
X506.422 Y105.228 (Contour)
X506.321 Y105.413 (Contour)
X506.223 Y105.581 (Contour)
X506.111 Y105.759 (Contour)
X506.001 Y105.919 (Contour)
X505.958 Y105.977 (Contour)
X505.960 Y105.979 (Contour)
X505.892 Y106.074 (Contour)
X505.822 Y106.168 (Contour)
X505.750 Y106.261 (Contour)
X505.678 Y106.352 (Contour)
X505.602 Y106.443 (Contour)
X505.526 Y106.531 (Contour)
X505.448 Y106.619 (Contour)
X505.369 Y106.704 (Contour)
X505.287 Y106.789 (Contour)
X505.205 Y106.872 (Contour)
X505.120 Y106.953 (Contour)
X505.034 Y107.033 (Contour)
X504.947 Y107.111 (Contour)
X504.859 Y107.188 (Contour)
X504.768 Y107.263 (Contour)
Y123.172 (Contour)
X598.748 (Contour)
Y107.263 (Contour)
X598.658 Y107.188 (Contour)
X598.570 Y107.111 (Contour)
X598.482 Y107.033 (Contour)
X598.397 Y106.953 (Contour)
X598.312 Y106.872 (Contour)
X598.230 Y106.789 (Contour)
X598.148 Y106.704 (Contour)
X598.069 Y106.619 (Contour)
X597.990 Y106.531 (Contour)
X597.914 Y106.443 (Contour)
X597.839 Y106.352 (Contour)
X597.766 Y106.261 (Contour)
X597.694 Y106.168 (Contour)
X597.625 Y106.075 (Contour)
X597.557 Y105.979 (Contour)
X597.515 Y105.919 (Contour)
X597.406 Y105.759 (Contour)
X597.294 Y105.581 (Contour)
X597.195 Y105.413 (Contour)
X597.095 Y105.228 (Contour)
X597.008 Y105.055 (Contour)
X596.920 Y104.864 (Contour)
X596.845 Y104.685 (Contour)
X596.770 Y104.488 (Contour)
X596.707 Y104.305 (Contour)
X596.645 Y104.103 (Contour)
X596.594 Y103.916 (Contour)
X596.545 Y103.711 (Contour)
X596.507 Y103.521 (Contour)
X596.472 Y103.313 (Contour)
X596.447 Y103.121 (Contour)
X596.426 Y102.912 (Contour)
X596.413 Y102.718 (Contour)
X596.406 Y102.508 (Contour)
Y102.313 (Contour)
X596.413 Y102.103 (Contour)
X596.426 Y101.909 (Contour)
X596.447 Y101.700 (Contour)
X596.472 Y101.508 (Contour)
X596.507 Y101.300 (Contour)
X596.545 Y101.110 (Contour)
X596.594 Y100.905 (Contour)
X596.645 Y100.718 (Contour)
X596.707 Y100.516 (Contour)
X596.770 Y100.333 (Contour)
X596.845 Y100.136 (Contour)
X596.920 Y99.957 (Contour)
X597.008 Y99.766 (Contour)
X597.095 Y99.593 (Contour)
X597.195 Y99.408 (Contour)
X597.294 Y99.240 (Contour)
X597.406 Y99.062 (Contour)
X597.515 Y98.902 (Contour)
X597.542 Y98.866 (Contour)
X597.541 Y98.865 (Contour)
X597.576 Y98.814 (Contour)
X597.612 Y98.764 (Contour)
X597.649 Y98.714 (Contour)
X597.685 Y98.664 (Contour)
X597.723 Y98.615 (Contour)
X597.761 Y98.566 (Contour)
X597.799 Y98.518 (Contour)
X597.838 Y98.470 (Contour)
X597.877 Y98.422 (Contour)
X597.917 Y98.375 (Contour)
X597.957 Y98.327 (Contour)
X597.998 Y98.281 (Contour)
X598.039 Y98.235 (Contour)
X598.080 Y98.189 (Contour)
X598.122 Y98.143 (Contour)
X598.165 Y98.099 (Contour)
X598.208 Y98.054 (Contour)
X598.251 Y98.010 (Contour)
X598.295 Y97.966 (Contour)
X598.339 Y97.923 (Contour)
X598.383 Y97.880 (Contour)
X598.428 Y97.838 (Contour)
X598.474 Y97.796 (Contour)
X598.519 Y97.754 (Contour)
X598.566 Y97.713 (Contour)
X598.612 Y97.672 (Contour)
X598.659 Y97.632 (Contour)
X598.706 Y97.593 (Contour)
X598.754 Y97.553 (Contour)
X598.802 Y97.514 (Contour)
X598.851 Y97.476 (Contour)
X598.900 Y97.438 (Contour)
X598.949 Y97.401 (Contour)
X598.998 Y97.364 (Contour)
X599.048 Y97.327 (Contour)
X599.097 Y97.292 (Contour)
X599.148 Y97.257 (Contour)
X599.186 Y97.230 (Contour)
X599.347 Y97.121 (Contour)
X599.525 Y97.009 (Contour)
X599.692 Y96.911 (Contour)
X599.877 Y96.810 (Contour)
X600.051 Y96.723 (Contour)
X600.242 Y96.635 (Contour)
X600.421 Y96.560 (Contour)
X600.618 Y96.485 (Contour)
X600.801 Y96.422 (Contour)
X601.002 Y96.360 (Contour)
X601.190 Y96.309 (Contour)
X601.394 Y96.261 (Contour)
X601.585 Y96.222 (Contour)
X601.792 Y96.188 (Contour)
X601.985 Y96.162 (Contour)
X602.194 Y96.141 (Contour)
X602.388 Y96.128 (Contour)
X602.598 Y96.121 (Contour)
X602.792 (Contour)
X603.003 Y96.128 (Contour)
X603.196 Y96.141 (Contour)
X603.406 Y96.162 (Contour)
X603.598 Y96.188 (Contour)
X603.806 Y96.222 (Contour)
X603.996 Y96.261 (Contour)
X604.201 Y96.309 (Contour)
X604.388 Y96.360 (Contour)
X604.589 Y96.422 (Contour)
X604.773 Y96.485 (Contour)
X604.969 Y96.560 (Contour)
X605.148 Y96.635 (Contour)
X605.340 Y96.723 (Contour)
X605.513 Y96.810 (Contour)
X605.698 Y96.911 (Contour)
X605.866 Y97.009 (Contour)
X606.043 Y97.121 (Contour)
X606.204 Y97.230 (Contour)
X606.262 Y97.274 (Contour)
X606.263 Y97.272 (Contour)
X606.359 Y97.340 (Contour)
X606.453 Y97.410 (Contour)
X606.546 Y97.481 (Contour)
X606.637 Y97.554 (Contour)
X606.728 Y97.629 (Contour)
X606.816 Y97.706 (Contour)
X606.904 Y97.784 (Contour)
X606.989 Y97.863 (Contour)
X607.074 Y97.945 (Contour)
X607.156 Y98.027 (Contour)
X607.238 Y98.112 (Contour)
X607.317 Y98.197 (Contour)
X607.396 Y98.285 (Contour)
X607.472 Y98.373 (Contour)
X607.547 Y98.464 (Contour)
X623.457 (Contour)
Y29.884 (Contour)
X607.547 (Contour)
X607.472 Y29.974 (Contour)
X607.396 Y30.062 (Contour)
X607.317 Y30.150 (Contour)
X607.238 Y30.235 (Contour)
X607.156 Y30.320 (Contour)
X607.074 Y30.402 (Contour)
X606.989 Y30.484 (Contour)
X606.904 Y30.563 (Contour)
X606.816 Y30.642 (Contour)
X606.728 Y30.718 (Contour)
X606.637 Y30.793 (Contour)
X606.546 Y30.866 (Contour)
X606.453 Y30.938 (Contour)
X606.360 Y31.007 (Contour)
X606.264 Y31.075 (Contour)
X606.204 Y31.117 (Contour)
X606.043 Y31.226 (Contour)
X605.866 Y31.338 (Contour)
X605.698 Y31.437 (Contour)
X605.513 Y31.537 (Contour)
X605.340 Y31.624 (Contour)
X605.148 Y31.712 (Contour)
X604.969 Y31.787 (Contour)
X604.773 Y31.862 (Contour)
X604.589 Y31.925 (Contour)
X604.388 Y31.987 (Contour)
X604.201 Y32.038 (Contour)
X603.996 Y32.086 (Contour)
X603.806 Y32.125 (Contour)
X603.598 Y32.160 (Contour)
X603.406 Y32.185 (Contour)
X603.196 Y32.206 (Contour)
X603.003 Y32.219 (Contour)
X602.792 Y32.226 (Contour)
X602.598 (Contour)
X602.388 Y32.219 (Contour)
X602.194 Y32.206 (Contour)
X601.985 Y32.185 (Contour)
X601.792 Y32.160 (Contour)
X601.585 Y32.125 (Contour)
X601.394 Y32.086 (Contour)
X601.190 Y32.038 (Contour)
X601.002 Y31.987 (Contour)
X600.801 Y31.925 (Contour)
X600.618 Y31.862 (Contour)
X600.421 Y31.787 (Contour)
X600.242 Y31.712 (Contour)
X600.051 Y31.624 (Contour)
X599.877 Y31.537 (Contour)
X599.692 Y31.437 (Contour)
X599.525 Y31.338 (Contour)
X599.347 Y31.226 (Contour)
X599.186 Y31.117 (Contour)
X599.150 Y31.090 (Contour)
X599.149 Y31.091 (Contour)
X599.099 Y31.056 (Contour)
X599.048 Y31.020 (Contour)
X598.998 Y30.983 (Contour)
X598.949 Y30.947 (Contour)
X598.900 Y30.909 (Contour)
X598.851 Y30.871 (Contour)
X598.802 Y30.833 (Contour)
X598.754 Y30.794 (Contour)
X598.706 Y30.755 (Contour)
X598.659 Y30.715 (Contour)
X598.612 Y30.675 (Contour)
X598.566 Y30.634 (Contour)
X598.519 Y30.593 (Contour)
X598.474 Y30.552 (Contour)
X598.428 Y30.509 (Contour)
X598.383 Y30.467 (Contour)
X598.339 Y30.424 (Contour)
X598.295 Y30.381 (Contour)
X598.251 Y30.337 (Contour)
X598.208 Y30.293 (Contour)
X598.165 Y30.248 (Contour)
X598.122 Y30.204 (Contour)
X598.080 Y30.158 (Contour)
X598.039 Y30.113 (Contour)
X597.998 Y30.066 (Contour)
X597.957 Y30.020 (Contour)
X597.917 Y29.973 (Contour)
X597.877 Y29.926 (Contour)
X597.838 Y29.878 (Contour)
X597.799 Y29.830 (Contour)
X597.761 Y29.781 (Contour)
X597.723 Y29.732 (Contour)
X597.685 Y29.683 (Contour)
X597.649 Y29.634 (Contour)
X597.612 Y29.583 (Contour)
X597.577 Y29.535 (Contour)
X597.541 Y29.484 (Contour)
X597.515 Y29.446 (Contour)
X597.406 Y29.285 (Contour)
X597.294 Y29.107 (Contour)
X597.195 Y28.940 (Contour)
X597.095 Y28.755 (Contour)
X597.008 Y28.581 (Contour)
X596.920 Y28.390 (Contour)
X596.845 Y28.211 (Contour)
X596.770 Y28.014 (Contour)
X596.707 Y27.831 (Contour)
X596.645 Y27.630 (Contour)
X596.594 Y27.442 (Contour)
X596.545 Y27.237 (Contour)
X596.507 Y27.047 (Contour)
X596.472 Y26.840 (Contour)
X596.447 Y26.647 (Contour)
X596.426 Y26.438 (Contour)
X596.413 Y26.244 (Contour)
X596.406 Y26.034 (Contour)
Y25.840 (Contour)
X596.413 Y25.629 (Contour)
X596.426 Y25.436 (Contour)
X596.447 Y25.226 (Contour)
X596.472 Y25.034 (Contour)
X596.507 Y24.826 (Contour)
X596.545 Y24.636 (Contour)
X596.594 Y24.431 (Contour)
X596.645 Y24.244 (Contour)
X596.707 Y24.043 (Contour)
X596.770 Y23.859 (Contour)
X596.845 Y23.662 (Contour)
X596.920 Y23.484 (Contour)
X597.008 Y23.292 (Contour)
X597.095 Y23.119 (Contour)
X597.195 Y22.934 (Contour)
X597.294 Y22.766 (Contour)
X597.406 Y22.588 (Contour)
X597.515 Y22.428 (Contour)
X597.559 Y22.370 (Contour)
X597.556 Y22.368 (Contour)
X597.625 Y22.273 (Contour)
X597.694 Y22.179 (Contour)
X597.766 Y22.086 (Contour)
X597.839 Y21.995 (Contour)
X597.914 Y21.904 (Contour)
X597.990 Y21.816 (Contour)
X598.069 Y21.728 (Contour)
X598.148 Y21.643 (Contour)
X598.230 Y21.558 (Contour)
X598.312 Y21.476 (Contour)
X598.397 Y21.394 (Contour)
X598.482 Y21.314 (Contour)
X598.570 Y21.236 (Contour)
X598.658 Y21.160 (Contour)
X598.748 Y21.084 (Contour)
Y5.175 (Contour)
X504.768 (Contour)
Y21.084 (Contour)
X504.859 Y21.160 (Contour)
X504.947 Y21.236 (Contour)
X505.034 Y21.314 (Contour)
X505.120 Y21.394 (Contour)
X505.205 Y21.476 (Contour)
X505.287 Y21.558 (Contour)
X505.369 Y21.643 (Contour)
X505.448 Y21.728 (Contour)
X505.526 Y21.816 (Contour)
X505.602 Y21.904 (Contour)
X505.678 Y21.995 (Contour)
X505.750 Y22.086 (Contour)
X505.822 Y22.179 (Contour)
X505.891 Y22.272 (Contour)
X505.960 Y22.368 (Contour)
X506.001 Y22.428 (Contour)
X506.111 Y22.588 (Contour)
X506.223 Y22.766 (Contour)
X506.321 Y22.934 (Contour)
X506.422 Y23.119 (Contour)
X506.508 Y23.292 (Contour)
X506.596 Y23.484 (Contour)
X506.672 Y23.662 (Contour)
X506.747 Y23.859 (Contour)
X506.810 Y24.043 (Contour)
X506.872 Y24.244 (Contour)
X506.923 Y24.431 (Contour)
X506.971 Y24.636 (Contour)
X507.009 Y24.826 (Contour)
X507.044 Y25.034 (Contour)
X507.070 Y25.226 (Contour)
X507.091 Y25.436 (Contour)
X507.104 Y25.629 (Contour)
X507.111 Y25.840 (Contour)
Y26.034 (Contour)
X507.104 Y26.244 (Contour)
X507.091 Y26.438 (Contour)
X507.070 Y26.647 (Contour)
X507.044 Y26.840 (Contour)
X507.009 Y27.047 (Contour)
X506.971 Y27.237 (Contour)
X506.923 Y27.442 (Contour)
X506.872 Y27.630 (Contour)
X506.810 Y27.831 (Contour)
X506.747 Y28.014 (Contour)
X506.672 Y28.211 (Contour)
X506.596 Y28.390 (Contour)
X506.508 Y28.581 (Contour)
X506.422 Y28.755 (Contour)
X506.321 Y28.940 (Contour)
X506.223 Y29.107 (Contour)
X506.111 Y29.285 (Contour)
X506.001 Y29.446 (Contour)
X505.974 Y29.481 (Contour)
X505.976 Y29.482 (Contour)
X505.940 Y29.533 (Contour)
X505.905 Y29.583 (Contour)
X505.868 Y29.634 (Contour)
X505.831 Y29.683 (Contour)
X505.794 Y29.732 (Contour)
X505.756 Y29.781 (Contour)
X505.717 Y29.830 (Contour)
X505.679 Y29.878 (Contour)
X505.639 Y29.926 (Contour)
X505.600 Y29.973 (Contour)
X505.559 Y30.020 (Contour)
X505.519 Y30.066 (Contour)
X505.478 Y30.113 (Contour)
X505.436 Y30.158 (Contour)
X505.394 Y30.204 (Contour)
X505.352 Y30.248 (Contour)
X505.309 Y30.293 (Contour)
X505.266 Y30.337 (Contour)
X505.222 Y30.381 (Contour)
X505.178 Y30.424 (Contour)
X505.133 Y30.467 (Contour)
X505.088 Y30.509 (Contour)
X505.043 Y30.552 (Contour)
X504.997 Y30.593 (Contour)
X504.951 Y30.634 (Contour)
X504.904 Y30.675 (Contour)
X504.857 Y30.715 (Contour)
X504.810 Y30.755 (Contour)
X504.762 Y30.794 (Contour)
X504.714 Y30.833 (Contour)
X504.666 Y30.871 (Contour)
X504.617 Y30.909 (Contour)
X504.568 Y30.947 (Contour)
X504.518 Y30.983 (Contour)
X504.468 Y31.020 (Contour)
X504.419 Y31.055 (Contour)
X504.368 Y31.090 (Contour)
X504.330 Y31.117 (Contour)
X504.170 Y31.226 (Contour)
X503.992 Y31.338 (Contour)
X503.824 Y31.437 (Contour)
X503.639 Y31.537 (Contour)
X503.466 Y31.624 (Contour)
X503.275 Y31.712 (Contour)
X503.096 Y31.787 (Contour)
X502.899 Y31.862 (Contour)
X502.715 Y31.925 (Contour)
X502.514 Y31.987 (Contour)
X502.327 Y32.038 (Contour)
X502.122 Y32.086 (Contour)
X501.932 Y32.125 (Contour)
X501.724 Y32.160 (Contour)
X501.532 Y32.185 (Contour)
X501.322 Y32.206 (Contour)
X501.129 Y32.219 (Contour)
X500.918 Y32.226 (Contour)
X500.724 (Contour)
X500.514 Y32.219 (Contour)
X500.320 Y32.206 (Contour)
X500.111 Y32.185 (Contour)
X499.918 Y32.160 (Contour)
X499.711 Y32.125 (Contour)
X499.521 Y32.086 (Contour)
X499.316 Y32.038 (Contour)
X499.128 Y31.987 (Contour)
X498.927 Y31.925 (Contour)
X498.744 Y31.862 (Contour)
X498.547 Y31.787 (Contour)
X498.368 Y31.712 (Contour)
X498.177 Y31.624 (Contour)
X498.003 Y31.537 (Contour)
X497.818 Y31.437 (Contour)
X497.651 Y31.338 (Contour)
X497.473 Y31.226 (Contour)
X497.312 Y31.117 (Contour)
X497.255 Y31.073 (Contour)
X497.253 Y31.075 (Contour)
X497.157 Y31.007 (Contour)
X497.064 Y30.938 (Contour)
X496.970 Y30.866 (Contour)
X496.879 Y30.793 (Contour)
X496.789 Y30.718 (Contour)
X496.701 Y30.642 (Contour)
X496.613 Y30.563 (Contour)
X496.527 Y30.484 (Contour)
X496.443 Y30.402 (Contour)
X496.360 Y30.320 (Contour)
X496.278 Y30.235 (Contour)
X496.199 Y30.150 (Contour)
X496.121 Y30.062 (Contour)
X496.044 Y29.974 (Contour)
X495.969 Y29.884 (Contour)
(Contour)
G00 Z5.000 (Lead out)
(Retract)
X158.158 Y103.244 (Lead in)
G01 X162.219 Y98.364 Z-3.000 F600 (Plunge)
X162.265 Y98.309 F2500 (Contour)
X162.343 Y98.218 (Contour)
X162.422 Y98.131 (Contour)
X162.504 Y98.043 (Contour)
X162.585 Y97.958 (Contour)
X162.671 Y97.873 (Contour)
X162.755 Y97.791 (Contour)
X162.843 Y97.709 (Contour)
X162.931 Y97.631 (Contour)
X163.022 Y97.552 (Contour)
X163.113 Y97.477 (Contour)
X163.207 Y97.402 (Contour)
X163.300 Y97.330 (Contour)
X163.396 Y97.259 (Contour)
X163.492 Y97.191 (Contour)
X163.554 Y97.148 (Contour)
X163.714 Y97.039 (Contour)
X163.898 Y96.923 (Contour)
X164.065 Y96.824 (Contour)
X164.256 Y96.721 (Contour)
X164.429 Y96.634 (Contour)
X164.627 Y96.543 (Contour)
X164.806 Y96.468 (Contour)
X165.008 Y96.391 (Contour)
X165.192 Y96.327 (Contour)
X165.399 Y96.264 (Contour)
X165.587 Y96.213 (Contour)
X165.798 Y96.163 (Contour)
X165.988 Y96.124 (Contour)
X166.202 Y96.089 (Contour)
X166.395 Y96.063 (Contour)
X166.611 Y96.041 (Contour)
X166.805 Y96.028 (Contour)
X167.022 Y96.021 (Contour)
X167.216 (Contour)
X167.433 Y96.028 (Contour)
X167.626 Y96.041 (Contour)
X167.842 Y96.063 (Contour)
X168.035 Y96.089 (Contour)
X168.249 Y96.124 (Contour)
X168.439 Y96.163 (Contour)
X168.650 Y96.213 (Contour)
X168.838 Y96.264 (Contour)
X169.045 Y96.327 (Contour)
X169.229 Y96.391 (Contour)
X169.432 Y96.468 (Contour)
X169.611 Y96.543 (Contour)
X169.808 Y96.634 (Contour)
X169.981 Y96.721 (Contour)
X170.172 Y96.824 (Contour)
X170.340 Y96.923 (Contour)
X170.523 Y97.039 (Contour)
X170.684 Y97.148 (Contour)
X170.721 Y97.176 (Contour)
X170.722 Y97.174 (Contour)
X170.773 Y97.210 (Contour)
X170.824 Y97.247 (Contour)
X170.874 Y97.283 (Contour)
X170.925 Y97.321 (Contour)
X170.975 Y97.359 (Contour)
X171.025 Y97.397 (Contour)
X171.074 Y97.436 (Contour)
X171.123 Y97.476 (Contour)
X171.171 Y97.515 (Contour)
X171.220 Y97.556 (Contour)
X171.267 Y97.596 (Contour)
X171.315 Y97.638 (Contour)
X171.361 Y97.680 (Contour)
X171.408 Y97.722 (Contour)
X171.454 Y97.764 (Contour)
X171.500 Y97.808 (Contour)
X171.544 Y97.851 (Contour)
X171.590 Y97.895 (Contour)
X171.634 Y97.939 (Contour)
X171.678 Y97.985 (Contour)
X171.721 Y98.029 (Contour)
X171.765 Y98.076 (Contour)
X171.807 Y98.121 (Contour)
X171.850 Y98.168 (Contour)
X171.891 Y98.215 (Contour)
X171.933 Y98.262 (Contour)
X171.973 Y98.310 (Contour)
X172.014 Y98.358 (Contour)
X172.053 Y98.406 (Contour)
X172.093 Y98.456 (Contour)
X172.132 Y98.504 (Contour)
X172.171 Y98.554 (Contour)
X172.208 Y98.604 (Contour)
X172.246 Y98.655 (Contour)
X172.283 Y98.705 (Contour)
X172.319 Y98.755 (Contour)
X172.354 Y98.806 (Contour)
X172.381 Y98.845 (Contour)
X172.490 Y99.006 (Contour)
X172.607 Y99.190 (Contour)
X172.705 Y99.357 (Contour)
X172.808 Y99.548 (Contour)
X172.895 Y99.721 (Contour)
X172.986 Y99.919 (Contour)
X173.061 Y100.097 (Contour)
X173.139 Y100.300 (Contour)
X173.202 Y100.484 (Contour)
X173.266 Y100.691 (Contour)
X173.316 Y100.879 (Contour)
X173.366 Y101.090 (Contour)
X173.405 Y101.280 (Contour)
X173.441 Y101.494 (Contour)
X173.466 Y101.687 (Contour)
X173.488 Y101.903 (Contour)
X173.501 Y102.096 (Contour)
X173.508 Y102.313 (Contour)
Y102.508 (Contour)
X173.501 Y102.725 (Contour)
X173.488 Y102.918 (Contour)
X173.466 Y103.134 (Contour)
X173.441 Y103.327 (Contour)
X173.405 Y103.541 (Contour)
X173.366 Y103.731 (Contour)
X173.316 Y103.942 (Contour)
X173.266 Y104.130 (Contour)
X173.202 Y104.337 (Contour)
X173.139 Y104.521 (Contour)
X173.061 Y104.724 (Contour)
X172.986 Y104.902 (Contour)
X172.895 Y105.100 (Contour)
X172.808 Y105.273 (Contour)
X172.705 Y105.464 (Contour)
X172.607 Y105.631 (Contour)
X172.490 Y105.815 (Contour)
X172.381 Y105.976 (Contour)
X172.337 Y106.035 (Contour)
X172.339 Y106.037 (Contour)
X172.270 Y106.133 (Contour)
X172.199 Y106.229 (Contour)
X172.127 Y106.322 (Contour)
X172.052 Y106.416 (Contour)
X171.977 Y106.507 (Contour)
X171.898 Y106.598 (Contour)
X171.820 Y106.686 (Contour)
X171.738 Y106.774 (Contour)
X171.656 Y106.859 (Contour)
X171.571 Y106.944 (Contour)
X171.487 Y107.025 (Contour)
X171.399 Y107.107 (Contour)
X171.311 Y107.186 (Contour)
X171.220 Y107.264 (Contour)
X171.166 Y107.310 (Contour)
Y123.072 (Contour)
X264.946 (Contour)
Y107.310 (Contour)
X264.891 Y107.264 (Contour)
X264.800 Y107.186 (Contour)
X264.713 Y107.107 (Contour)
X264.624 Y107.025 (Contour)
X264.540 Y106.944 (Contour)
X264.455 Y106.859 (Contour)
X264.373 Y106.774 (Contour)
X264.291 Y106.686 (Contour)
X264.213 Y106.598 (Contour)
X264.134 Y106.507 (Contour)
X264.059 Y106.416 (Contour)
X263.984 Y106.322 (Contour)
X263.912 Y106.229 (Contour)
X263.841 Y106.133 (Contour)
X263.773 Y106.037 (Contour)
X263.730 Y105.976 (Contour)
X263.621 Y105.815 (Contour)
X263.505 Y105.631 (Contour)
X263.406 Y105.464 (Contour)
X263.303 Y105.273 (Contour)
X263.216 Y105.100 (Contour)
X263.125 Y104.902 (Contour)
X263.050 Y104.724 (Contour)
X262.972 Y104.521 (Contour)
X262.909 Y104.337 (Contour)
X262.845 Y104.130 (Contour)
X262.795 Y103.942 (Contour)
X262.745 Y103.731 (Contour)
X262.706 Y103.541 (Contour)
X262.670 Y103.327 (Contour)
X262.645 Y103.134 (Contour)
X262.623 Y102.918 (Contour)
X262.610 Y102.725 (Contour)
X262.603 Y102.508 (Contour)
Y102.313 (Contour)
X262.610 Y102.096 (Contour)
X262.623 Y101.903 (Contour)
X262.645 Y101.687 (Contour)
X262.670 Y101.494 (Contour)
X262.706 Y101.280 (Contour)
X262.745 Y101.090 (Contour)
X262.795 Y100.879 (Contour)
X262.845 Y100.691 (Contour)
X262.909 Y100.484 (Contour)
X262.972 Y100.300 (Contour)
X263.050 Y100.097 (Contour)
X263.125 Y99.919 (Contour)
X263.216 Y99.721 (Contour)
X263.303 Y99.548 (Contour)
X263.406 Y99.357 (Contour)
X263.505 Y99.190 (Contour)
X263.621 Y99.006 (Contour)
X263.730 Y98.845 (Contour)
X263.757 Y98.809 (Contour)
X263.756 Y98.807 (Contour)
X263.792 Y98.757 (Contour)
X263.828 Y98.705 (Contour)
X263.865 Y98.655 (Contour)
X263.903 Y98.604 (Contour)
X263.941 Y98.554 (Contour)
X263.979 Y98.504 (Contour)
X264.018 Y98.456 (Contour)
X264.058 Y98.406 (Contour)
X264.097 Y98.358 (Contour)
X264.138 Y98.310 (Contour)
X264.178 Y98.262 (Contour)
X264.220 Y98.215 (Contour)
X264.261 Y98.168 (Contour)
X264.304 Y98.121 (Contour)
X264.346 Y98.076 (Contour)
X264.390 Y98.029 (Contour)
X264.433 Y97.985 (Contour)
X264.477 Y97.939 (Contour)
X264.521 Y97.895 (Contour)
X264.567 Y97.851 (Contour)
X264.611 Y97.808 (Contour)
X264.657 Y97.764 (Contour)
X264.703 Y97.722 (Contour)
X264.750 Y97.680 (Contour)
X264.796 Y97.638 (Contour)
X264.844 Y97.596 (Contour)
X264.891 Y97.556 (Contour)
X264.940 Y97.515 (Contour)
X264.988 Y97.476 (Contour)
X265.037 Y97.436 (Contour)
X265.086 Y97.397 (Contour)
X265.136 Y97.359 (Contour)
X265.186 Y97.321 (Contour)
X265.237 Y97.283 (Contour)
X265.287 Y97.247 (Contour)
X265.337 Y97.211 (Contour)
X265.388 Y97.175 (Contour)
X265.427 Y97.148 (Contour)
X265.588 Y97.039 (Contour)
X265.771 Y96.923 (Contour)
X265.939 Y96.824 (Contour)
X266.130 Y96.721 (Contour)
X266.303 Y96.634 (Contour)
X266.500 Y96.543 (Contour)
X266.679 Y96.468 (Contour)
X266.882 Y96.391 (Contour)
X267.066 Y96.327 (Contour)
X267.273 Y96.264 (Contour)
X267.461 Y96.213 (Contour)
X267.672 Y96.163 (Contour)
X267.862 Y96.124 (Contour)
X268.076 Y96.089 (Contour)
X268.269 Y96.063 (Contour)
X268.485 Y96.041 (Contour)
X268.678 Y96.028 (Contour)
X268.895 Y96.021 (Contour)
X269.089 (Contour)
X269.306 Y96.028 (Contour)
X269.500 Y96.041 (Contour)
X269.716 Y96.063 (Contour)
X269.909 Y96.089 (Contour)
X270.123 Y96.124 (Contour)
X270.313 Y96.163 (Contour)
X270.524 Y96.213 (Contour)
X270.712 Y96.264 (Contour)
X270.919 Y96.327 (Contour)
X271.103 Y96.391 (Contour)
X271.305 Y96.468 (Contour)
X271.484 Y96.543 (Contour)
X271.682 Y96.634 (Contour)
X271.855 Y96.721 (Contour)
X272.046 Y96.824 (Contour)
X272.213 Y96.923 (Contour)
X272.397 Y97.039 (Contour)
X272.557 Y97.148 (Contour)
X272.617 Y97.193 (Contour)
X272.619 Y97.190 (Contour)
X272.714 Y97.259 (Contour)
X272.811 Y97.330 (Contour)
X272.904 Y97.402 (Contour)
X272.998 Y97.477 (Contour)
X273.089 Y97.552 (Contour)
X273.180 Y97.631 (Contour)
X273.268 Y97.709 (Contour)
X273.356 Y97.791 (Contour)
X273.440 Y97.873 (Contour)
X273.526 Y97.958 (Contour)
X273.607 Y98.043 (Contour)
X273.689 Y98.131 (Contour)
X273.768 Y98.218 (Contour)
X273.846 Y98.309 (Contour)
X273.892 Y98.364 (Contour)
X289.654 (Contour)
Y29.984 (Contour)
X273.892 (Contour)
X273.846 Y30.038 (Contour)
X273.768 Y30.129 (Contour)
X273.689 Y30.217 (Contour)
X273.607 Y30.305 (Contour)
X273.526 Y30.389 (Contour)
X273.440 Y30.474 (Contour)
X273.356 Y30.556 (Contour)
X273.268 Y30.638 (Contour)
X273.180 Y30.716 (Contour)
X273.089 Y30.795 (Contour)
X272.998 Y30.870 (Contour)
X272.904 Y30.945 (Contour)
X272.811 Y31.017 (Contour)
X272.715 Y31.088 (Contour)
X272.619 Y31.156 (Contour)
X272.557 Y31.200 (Contour)
X272.397 Y31.309 (Contour)
X272.213 Y31.425 (Contour)
X272.046 Y31.523 (Contour)
X271.855 Y31.626 (Contour)
X271.682 Y31.713 (Contour)
X271.484 Y31.804 (Contour)
X271.305 Y31.879 (Contour)
X271.103 Y31.957 (Contour)
X270.919 Y32.020 (Contour)
X270.712 Y32.084 (Contour)
X270.524 Y32.135 (Contour)
X270.313 Y32.184 (Contour)
X270.123 Y32.223 (Contour)
X269.909 Y32.259 (Contour)
X269.716 Y32.284 (Contour)
X269.500 Y32.306 (Contour)
X269.306 Y32.319 (Contour)
X269.089 Y32.326 (Contour)
X268.895 (Contour)
X268.678 Y32.319 (Contour)
X268.485 Y32.306 (Contour)
X268.269 Y32.284 (Contour)
X268.076 Y32.259 (Contour)
X267.862 Y32.223 (Contour)
X267.672 Y32.184 (Contour)
X267.461 Y32.135 (Contour)
X267.273 Y32.084 (Contour)
X267.066 Y32.020 (Contour)
X266.882 Y31.957 (Contour)
X266.679 Y31.879 (Contour)
X266.500 Y31.804 (Contour)
X266.303 Y31.713 (Contour)
X266.130 Y31.626 (Contour)
X265.939 Y31.523 (Contour)
X265.771 Y31.425 (Contour)
X265.588 Y31.309 (Contour)
X265.427 Y31.200 (Contour)
X265.390 Y31.172 (Contour)
X265.389 Y31.173 (Contour)
X265.338 Y31.138 (Contour)
X265.287 Y31.101 (Contour)
X265.237 Y31.064 (Contour)
X265.186 Y31.026 (Contour)
X265.136 Y30.989 (Contour)
X265.086 Y30.950 (Contour)
X265.037 Y30.911 (Contour)
X264.988 Y30.871 (Contour)
X264.940 Y30.832 (Contour)
X264.891 Y30.791 (Contour)
X264.844 Y30.751 (Contour)
X264.796 Y30.709 (Contour)
X264.750 Y30.668 (Contour)
X264.703 Y30.625 (Contour)
X264.657 Y30.583 (Contour)
X264.611 Y30.539 (Contour)
X264.567 Y30.496 (Contour)
X264.521 Y30.452 (Contour)
X264.477 Y30.408 (Contour)
X264.433 Y30.363 (Contour)
X264.390 Y30.318 (Contour)
X264.346 Y30.272 (Contour)
X264.304 Y30.226 (Contour)
X264.261 Y30.179 (Contour)
X264.220 Y30.133 (Contour)
X264.178 Y30.085 (Contour)
X264.138 Y30.038 (Contour)
X264.097 Y29.989 (Contour)
X264.058 Y29.941 (Contour)
X264.018 Y29.892 (Contour)
X263.979 Y29.843 (Contour)
X263.941 Y29.793 (Contour)
X263.903 Y29.743 (Contour)
X263.865 Y29.692 (Contour)
X263.828 Y29.642 (Contour)
X263.792 Y29.592 (Contour)
X263.757 Y29.541 (Contour)
X263.730 Y29.502 (Contour)
X263.621 Y29.341 (Contour)
X263.505 Y29.158 (Contour)
X263.406 Y28.990 (Contour)
X263.303 Y28.799 (Contour)
X263.216 Y28.626 (Contour)
X263.125 Y28.429 (Contour)
X263.050 Y28.250 (Contour)
X262.972 Y28.047 (Contour)
X262.909 Y27.863 (Contour)
X262.845 Y27.656 (Contour)
X262.795 Y27.469 (Contour)
X262.745 Y27.257 (Contour)
X262.706 Y27.067 (Contour)
X262.670 Y26.853 (Contour)
X262.645 Y26.660 (Contour)
X262.623 Y26.444 (Contour)
X262.610 Y26.251 (Contour)
X262.603 Y26.034 (Contour)
Y25.840 (Contour)
X262.610 Y25.623 (Contour)
X262.623 Y25.429 (Contour)
X262.645 Y25.213 (Contour)
X262.670 Y25.021 (Contour)
X262.706 Y24.806 (Contour)
X262.745 Y24.616 (Contour)
X262.795 Y24.405 (Contour)
X262.845 Y24.218 (Contour)
X262.909 Y24.010 (Contour)
X262.972 Y23.827 (Contour)
X263.050 Y23.624 (Contour)
X263.125 Y23.445 (Contour)
X263.216 Y23.247 (Contour)
X263.303 Y23.074 (Contour)
X263.406 Y22.883 (Contour)
X263.505 Y22.716 (Contour)
X263.621 Y22.532 (Contour)
X263.730 Y22.372 (Contour)
X263.775 Y22.312 (Contour)
X263.772 Y22.310 (Contour)
X263.841 Y22.215 (Contour)
X263.912 Y22.118 (Contour)
X263.984 Y22.025 (Contour)
X264.059 Y21.931 (Contour)
X264.134 Y21.840 (Contour)
X264.213 Y21.749 (Contour)
X264.291 Y21.662 (Contour)
X264.373 Y21.573 (Contour)
X264.455 Y21.489 (Contour)
X264.540 Y21.404 (Contour)
X264.624 Y21.322 (Contour)
X264.713 Y21.240 (Contour)
X264.800 Y21.161 (Contour)
X264.891 Y21.083 (Contour)
X264.946 Y21.038 (Contour)
Y5.275 (Contour)
X171.166 (Contour)
Y21.038 (Contour)
X171.220 Y21.083 (Contour)
X171.311 Y21.161 (Contour)
X171.399 Y21.240 (Contour)
X171.487 Y21.322 (Contour)
X171.571 Y21.404 (Contour)
X171.656 Y21.489 (Contour)
X171.738 Y21.573 (Contour)
X171.820 Y21.662 (Contour)
X171.898 Y21.749 (Contour)
X171.977 Y21.840 (Contour)
X172.052 Y21.931 (Contour)
X172.127 Y22.025 (Contour)
X172.199 Y22.118 (Contour)
X172.270 Y22.214 (Contour)
X172.338 Y22.310 (Contour)
X172.381 Y22.372 (Contour)
X172.490 Y22.532 (Contour)
X172.607 Y22.716 (Contour)
X172.705 Y22.883 (Contour)
X172.808 Y23.074 (Contour)
X172.895 Y23.247 (Contour)
X172.986 Y23.445 (Contour)
X173.061 Y23.624 (Contour)
X173.139 Y23.827 (Contour)
X173.202 Y24.010 (Contour)
X173.266 Y24.218 (Contour)
X173.316 Y24.405 (Contour)
X173.366 Y24.616 (Contour)
X173.405 Y24.806 (Contour)
X173.441 Y25.021 (Contour)
X173.466 Y25.213 (Contour)
X173.488 Y25.429 (Contour)
X173.501 Y25.623 (Contour)
X173.508 Y25.840 (Contour)
Y26.034 (Contour)
X173.501 Y26.251 (Contour)
X173.488 Y26.444 (Contour)
X173.466 Y26.660 (Contour)
X173.441 Y26.853 (Contour)
X173.405 Y27.067 (Contour)
X173.366 Y27.257 (Contour)
X173.316 Y27.469 (Contour)
X173.266 Y27.656 (Contour)
X173.202 Y27.863 (Contour)
X173.139 Y28.047 (Contour)
X173.061 Y28.250 (Contour)
X172.986 Y28.429 (Contour)
X172.895 Y28.626 (Contour)
X172.808 Y28.799 (Contour)
X172.705 Y28.990 (Contour)
X172.607 Y29.158 (Contour)
X172.490 Y29.341 (Contour)
X172.381 Y29.502 (Contour)
X172.354 Y29.539 (Contour)
X172.355 Y29.540 (Contour)
X172.320 Y29.591 (Contour)
X172.283 Y29.642 (Contour)
X172.246 Y29.692 (Contour)
X172.208 Y29.743 (Contour)
X172.171 Y29.793 (Contour)
X172.132 Y29.843 (Contour)
X172.093 Y29.892 (Contour)
X172.053 Y29.941 (Contour)
X172.014 Y29.989 (Contour)
X171.973 Y30.038 (Contour)
X171.933 Y30.085 (Contour)
X171.891 Y30.133 (Contour)
X171.850 Y30.179 (Contour)
X171.807 Y30.226 (Contour)
X171.765 Y30.272 (Contour)
X171.721 Y30.318 (Contour)
X171.678 Y30.363 (Contour)
X171.634 Y30.408 (Contour)
X171.590 Y30.452 (Contour)
X171.544 Y30.496 (Contour)
X171.500 Y30.539 (Contour)
X171.454 Y30.583 (Contour)
X171.408 Y30.625 (Contour)
X171.361 Y30.668 (Contour)
X171.315 Y30.709 (Contour)
X171.267 Y30.751 (Contour)
X171.220 Y30.791 (Contour)
X171.171 Y30.832 (Contour)
X171.123 Y30.871 (Contour)
X171.074 Y30.911 (Contour)
X171.025 Y30.950 (Contour)
X170.975 Y30.989 (Contour)
X170.925 Y31.026 (Contour)
X170.874 Y31.064 (Contour)
X170.824 Y31.101 (Contour)
X170.774 Y31.137 (Contour)
X170.723 Y31.172 (Contour)
X170.684 Y31.200 (Contour)
X170.523 Y31.309 (Contour)
X170.340 Y31.425 (Contour)
X170.172 Y31.523 (Contour)
X169.981 Y31.626 (Contour)
X169.808 Y31.713 (Contour)
X169.611 Y31.804 (Contour)
X169.432 Y31.879 (Contour)
X169.229 Y31.957 (Contour)
X169.045 Y32.020 (Contour)
X168.838 Y32.084 (Contour)
X168.650 Y32.135 (Contour)
X168.439 Y32.184 (Contour)
X168.249 Y32.223 (Contour)
X168.035 Y32.259 (Contour)
X167.842 Y32.284 (Contour)
X167.626 Y32.306 (Contour)
X167.433 Y32.319 (Contour)
X167.216 Y32.326 (Contour)
X167.022 (Contour)
X166.805 Y32.319 (Contour)
X166.611 Y32.306 (Contour)
X166.395 Y32.284 (Contour)
X166.202 Y32.259 (Contour)
X165.988 Y32.223 (Contour)
X165.798 Y32.184 (Contour)
X165.587 Y32.135 (Contour)
X165.399 Y32.084 (Contour)
X165.192 Y32.020 (Contour)
X165.008 Y31.957 (Contour)
X164.806 Y31.879 (Contour)
X164.627 Y31.804 (Contour)
X164.429 Y31.713 (Contour)
X164.256 Y31.626 (Contour)
X164.065 Y31.523 (Contour)
X163.898 Y31.425 (Contour)
X163.714 Y31.309 (Contour)
X163.554 Y31.200 (Contour)
X163.494 Y31.155 (Contour)
X163.492 Y31.157 (Contour)
X163.397 Y31.088 (Contour)
X163.300 Y31.017 (Contour)
X163.207 Y30.945 (Contour)
X163.113 Y30.870 (Contour)
X163.022 Y30.795 (Contour)
X162.931 Y30.716 (Contour)
X162.843 Y30.638 (Contour)
X162.755 Y30.556 (Contour)
X162.671 Y30.474 (Contour)
X162.585 Y30.389 (Contour)
X162.504 Y30.305 (Contour)
X162.422 Y30.217 (Contour)
X162.343 Y30.129 (Contour)
X162.265 Y30.038 (Contour)
X162.219 Y29.984 (Contour)
X146.457 (Contour)
Y98.364 (Contour)
X162.219 (Contour)
(Contour)
G00 Z5.000 (Lead out)
X168.616 Y29.884 (Lead in)
G01 X162.266 Z-3.000 F600 (Plunge)
X146.357 F2500 (Contour)
Y98.464 (Contour)
X162.266 (Contour)
X162.342 Y98.373 (Contour)
X162.418 Y98.285 (Contour)
X162.496 Y98.197 (Contour)
X162.576 Y98.112 (Contour)
X162.657 Y98.027 (Contour)
X162.740 Y97.945 (Contour)
X162.825 Y97.863 (Contour)
X162.910 Y97.784 (Contour)
X162.998 Y97.706 (Contour)
X163.086 Y97.629 (Contour)
X163.177 Y97.554 (Contour)
X163.268 Y97.481 (Contour)
X163.361 Y97.410 (Contour)
X163.454 Y97.341 (Contour)
X163.550 Y97.272 (Contour)
X163.610 Y97.230 (Contour)
X163.770 Y97.121 (Contour)
X163.948 Y97.009 (Contour)
X164.116 Y96.911 (Contour)
X164.301 Y96.810 (Contour)
X164.474 Y96.723 (Contour)
X164.665 Y96.635 (Contour)
X164.844 Y96.560 (Contour)
X165.041 Y96.485 (Contour)
X165.224 Y96.422 (Contour)
X165.426 Y96.360 (Contour)
X165.613 Y96.309 (Contour)
X165.818 Y96.261 (Contour)
X166.008 Y96.222 (Contour)
X166.216 Y96.188 (Contour)
X166.408 Y96.162 (Contour)
X166.618 Y96.141 (Contour)
X166.811 Y96.128 (Contour)
X167.022 Y96.121 (Contour)
X167.216 (Contour)
X167.426 Y96.128 (Contour)
X167.620 Y96.141 (Contour)
X167.829 Y96.162 (Contour)
X168.022 Y96.188 (Contour)
X168.229 Y96.222 (Contour)
X168.419 Y96.261 (Contour)
X168.624 Y96.309 (Contour)
X168.812 Y96.360 (Contour)
X169.013 Y96.422 (Contour)
X169.196 Y96.485 (Contour)
X169.393 Y96.560 (Contour)
X169.572 Y96.635 (Contour)
X169.763 Y96.723 (Contour)
X169.937 Y96.810 (Contour)
X170.122 Y96.911 (Contour)
X170.289 Y97.009 (Contour)
X170.467 Y97.121 (Contour)
X170.627 Y97.230 (Contour)
X170.663 Y97.257 (Contour)
X170.664 Y97.256 (Contour)
X170.715 Y97.292 (Contour)
X170.765 Y97.327 (Contour)
X170.815 Y97.364 (Contour)
X170.865 Y97.401 (Contour)
X170.914 Y97.438 (Contour)
X170.963 Y97.476 (Contour)
X171.012 Y97.514 (Contour)
X171.059 Y97.553 (Contour)
X171.107 Y97.593 (Contour)
X171.155 Y97.632 (Contour)
X171.202 Y97.672 (Contour)
X171.248 Y97.713 (Contour)
X171.294 Y97.754 (Contour)
X171.340 Y97.796 (Contour)
X171.386 Y97.838 (Contour)
X171.430 Y97.880 (Contour)
X171.475 Y97.923 (Contour)
X171.519 Y97.966 (Contour)
X171.563 Y98.010 (Contour)
X171.606 Y98.054 (Contour)
X171.649 Y98.099 (Contour)
X171.691 Y98.143 (Contour)
X171.734 Y98.189 (Contour)
X171.775 Y98.235 (Contour)
X171.816 Y98.281 (Contour)
X171.857 Y98.327 (Contour)
X171.897 Y98.375 (Contour)
X171.937 Y98.422 (Contour)
X171.976 Y98.470 (Contour)
X172.015 Y98.518 (Contour)
X172.053 Y98.566 (Contour)
X172.091 Y98.615 (Contour)
X172.128 Y98.664 (Contour)
X172.165 Y98.714 (Contour)
X172.202 Y98.764 (Contour)
X172.237 Y98.813 (Contour)
X172.272 Y98.863 (Contour)
X172.299 Y98.902 (Contour)
X172.408 Y99.062 (Contour)
X172.520 Y99.240 (Contour)
X172.618 Y99.408 (Contour)
X172.719 Y99.593 (Contour)
X172.806 Y99.766 (Contour)
X172.894 Y99.957 (Contour)
X172.969 Y100.136 (Contour)
X173.044 Y100.333 (Contour)
X173.107 Y100.516 (Contour)
X173.169 Y100.718 (Contour)
X173.220 Y100.905 (Contour)
X173.268 Y101.110 (Contour)
X173.307 Y101.300 (Contour)
X173.341 Y101.508 (Contour)
X173.367 Y101.700 (Contour)
X173.388 Y101.909 (Contour)
X173.401 Y102.103 (Contour)
X173.408 Y102.313 (Contour)
Y102.508 (Contour)
X173.401 Y102.718 (Contour)
X173.388 Y102.912 (Contour)
X173.367 Y103.121 (Contour)
X173.341 Y103.313 (Contour)
X173.307 Y103.521 (Contour)
X173.268 Y103.711 (Contour)
X173.220 Y103.916 (Contour)
X173.169 Y104.103 (Contour)
X173.107 Y104.305 (Contour)
X173.044 Y104.488 (Contour)
X172.969 Y104.685 (Contour)
X172.894 Y104.864 (Contour)
X172.806 Y105.055 (Contour)
X172.719 Y105.228 (Contour)
X172.618 Y105.413 (Contour)
X172.520 Y105.581 (Contour)
X172.408 Y105.759 (Contour)
X172.299 Y105.919 (Contour)
X172.255 Y105.977 (Contour)
X172.257 Y105.979 (Contour)
X172.189 Y106.074 (Contour)
X172.120 Y106.168 (Contour)
X172.048 Y106.261 (Contour)
X171.975 Y106.352 (Contour)
X171.900 Y106.443 (Contour)
X171.824 Y106.531 (Contour)
X171.745 Y106.619 (Contour)
X171.666 Y106.704 (Contour)
X171.584 Y106.789 (Contour)
X171.502 Y106.872 (Contour)
X171.417 Y106.953 (Contour)
X171.332 Y107.033 (Contour)
X171.244 Y107.111 (Contour)
X171.156 Y107.188 (Contour)
X171.066 Y107.263 (Contour)
Y123.172 (Contour)
X265.046 (Contour)
Y107.263 (Contour)
X264.955 Y107.188 (Contour)
X264.867 Y107.111 (Contour)
X264.779 Y107.033 (Contour)
X264.694 Y106.953 (Contour)
X264.609 Y106.872 (Contour)
X264.527 Y106.789 (Contour)
X264.445 Y106.704 (Contour)
X264.366 Y106.619 (Contour)
X264.287 Y106.531 (Contour)
X264.211 Y106.443 (Contour)
X264.136 Y106.352 (Contour)
X264.063 Y106.261 (Contour)
X263.991 Y106.168 (Contour)
X263.923 Y106.075 (Contour)
X263.854 Y105.979 (Contour)
X263.812 Y105.919 (Contour)
X263.703 Y105.759 (Contour)
X263.591 Y105.581 (Contour)
X263.493 Y105.413 (Contour)
X263.392 Y105.228 (Contour)
X263.305 Y105.055 (Contour)
X263.217 Y104.864 (Contour)
X263.142 Y104.685 (Contour)
X263.067 Y104.488 (Contour)
X263.004 Y104.305 (Contour)
X262.942 Y104.103 (Contour)
X262.891 Y103.916 (Contour)
X262.843 Y103.711 (Contour)
X262.804 Y103.521 (Contour)
X262.770 Y103.313 (Contour)
X262.744 Y103.121 (Contour)
X262.723 Y102.912 (Contour)
X262.710 Y102.718 (Contour)
X262.703 Y102.508 (Contour)
Y102.313 (Contour)
X262.710 Y102.103 (Contour)
X262.723 Y101.909 (Contour)
X262.744 Y101.700 (Contour)
X262.770 Y101.508 (Contour)
X262.804 Y101.300 (Contour)
X262.843 Y101.110 (Contour)
X262.891 Y100.905 (Contour)
X262.942 Y100.718 (Contour)
X263.004 Y100.516 (Contour)
X263.067 Y100.333 (Contour)
X263.142 Y100.136 (Contour)
X263.217 Y99.957 (Contour)
X263.305 Y99.766 (Contour)
X263.392 Y99.593 (Contour)
X263.493 Y99.408 (Contour)
X263.591 Y99.240 (Contour)
X263.703 Y99.062 (Contour)
X263.812 Y98.902 (Contour)
X263.839 Y98.866 (Contour)
X263.838 Y98.865 (Contour)
X263.873 Y98.814 (Contour)
X263.909 Y98.764 (Contour)
X263.946 Y98.714 (Contour)
X263.983 Y98.664 (Contour)
X264.020 Y98.615 (Contour)
X264.058 Y98.566 (Contour)
X264.096 Y98.518 (Contour)
X264.135 Y98.470 (Contour)
X264.174 Y98.422 (Contour)
X264.214 Y98.375 (Contour)
X264.254 Y98.327 (Contour)
X264.295 Y98.281 (Contour)
X264.336 Y98.235 (Contour)
X264.377 Y98.189 (Contour)
X264.420 Y98.143 (Contour)
X264.462 Y98.099 (Contour)
X264.505 Y98.054 (Contour)
X264.548 Y98.010 (Contour)
X264.592 Y97.966 (Contour)
X264.636 Y97.923 (Contour)
X264.681 Y97.880 (Contour)
X264.725 Y97.838 (Contour)
X264.771 Y97.796 (Contour)
X264.817 Y97.754 (Contour)
X264.863 Y97.713 (Contour)
X264.909 Y97.672 (Contour)
X264.956 Y97.632 (Contour)
X265.004 Y97.593 (Contour)
X265.052 Y97.553 (Contour)
X265.099 Y97.514 (Contour)
X265.148 Y97.476 (Contour)
X265.197 Y97.438 (Contour)
X265.246 Y97.401 (Contour)
X265.296 Y97.364 (Contour)
X265.346 Y97.327 (Contour)
X265.395 Y97.292 (Contour)
X265.445 Y97.257 (Contour)
X265.484 Y97.230 (Contour)
X265.644 Y97.121 (Contour)
X265.822 Y97.009 (Contour)
X265.989 Y96.911 (Contour)
X266.174 Y96.810 (Contour)
X266.348 Y96.723 (Contour)
X266.539 Y96.635 (Contour)
X266.718 Y96.560 (Contour)
X266.915 Y96.485 (Contour)
X267.098 Y96.422 (Contour)
X267.300 Y96.360 (Contour)
X267.487 Y96.309 (Contour)
X267.692 Y96.261 (Contour)
X267.882 Y96.222 (Contour)
X268.090 Y96.188 (Contour)
X268.282 Y96.162 (Contour)
X268.491 Y96.141 (Contour)
X268.685 Y96.128 (Contour)
X268.895 Y96.121 (Contour)
X269.089 (Contour)
X269.300 Y96.128 (Contour)
X269.493 Y96.141 (Contour)
X269.703 Y96.162 (Contour)
X269.895 Y96.188 (Contour)
X270.103 Y96.222 (Contour)
X270.293 Y96.261 (Contour)
X270.498 Y96.309 (Contour)
X270.685 Y96.360 (Contour)
X270.887 Y96.422 (Contour)
X271.070 Y96.485 (Contour)
X271.267 Y96.560 (Contour)
X271.446 Y96.635 (Contour)
X271.637 Y96.723 (Contour)
X271.810 Y96.810 (Contour)
X271.995 Y96.911 (Contour)
X272.163 Y97.009 (Contour)
X272.341 Y97.121 (Contour)
X272.501 Y97.230 (Contour)
X272.559 Y97.274 (Contour)
X272.561 Y97.272 (Contour)
X272.656 Y97.340 (Contour)
X272.750 Y97.410 (Contour)
X272.843 Y97.481 (Contour)
X272.934 Y97.554 (Contour)
X273.025 Y97.629 (Contour)
X273.113 Y97.706 (Contour)
X273.201 Y97.784 (Contour)
X273.286 Y97.863 (Contour)
X273.371 Y97.945 (Contour)
X273.454 Y98.027 (Contour)
X273.535 Y98.112 (Contour)
X273.615 Y98.197 (Contour)
X273.693 Y98.285 (Contour)
X273.769 Y98.373 (Contour)
X273.845 Y98.464 (Contour)
X289.754 (Contour)
Y29.884 (Contour)
X273.845 (Contour)
X273.769 Y29.974 (Contour)
X273.693 Y30.062 (Contour)
X273.615 Y30.150 (Contour)
X273.535 Y30.235 (Contour)
X273.454 Y30.320 (Contour)
X273.371 Y30.402 (Contour)
X273.286 Y30.484 (Contour)
X273.201 Y30.563 (Contour)
X273.113 Y30.642 (Contour)
X273.025 Y30.718 (Contour)
X272.934 Y30.793 (Contour)
X272.843 Y30.866 (Contour)
X272.750 Y30.938 (Contour)
X272.657 Y31.007 (Contour)
X272.561 Y31.075 (Contour)
X272.501 Y31.117 (Contour)
X272.341 Y31.226 (Contour)
X272.163 Y31.338 (Contour)
X271.995 Y31.437 (Contour)
X271.810 Y31.537 (Contour)
X271.637 Y31.624 (Contour)
X271.446 Y31.712 (Contour)
X271.267 Y31.787 (Contour)
X271.070 Y31.862 (Contour)
X270.887 Y31.925 (Contour)
X270.685 Y31.987 (Contour)
X270.498 Y32.038 (Contour)
X270.293 Y32.086 (Contour)
X270.103 Y32.125 (Contour)
X269.895 Y32.160 (Contour)
X269.703 Y32.185 (Contour)
X269.493 Y32.206 (Contour)
X269.300 Y32.219 (Contour)
X269.089 Y32.226 (Contour)
X268.895 (Contour)
X268.685 Y32.219 (Contour)
X268.491 Y32.206 (Contour)
X268.282 Y32.185 (Contour)
X268.090 Y32.160 (Contour)
X267.882 Y32.125 (Contour)
X267.692 Y32.086 (Contour)
X267.487 Y32.038 (Contour)
X267.300 Y31.987 (Contour)
X267.098 Y31.925 (Contour)
X266.915 Y31.862 (Contour)
X266.718 Y31.787 (Contour)
X266.539 Y31.712 (Contour)
X266.348 Y31.624 (Contour)
X266.174 Y31.537 (Contour)
X265.989 Y31.437 (Contour)
X265.822 Y31.338 (Contour)
X265.644 Y31.226 (Contour)
X265.484 Y31.117 (Contour)
X265.448 Y31.090 (Contour)
X265.447 Y31.091 (Contour)
X265.396 Y31.056 (Contour)
X265.346 Y31.020 (Contour)
X265.296 Y30.983 (Contour)
X265.246 Y30.947 (Contour)
X265.197 Y30.909 (Contour)
X265.148 Y30.871 (Contour)
X265.099 Y30.833 (Contour)
X265.052 Y30.794 (Contour)
X265.004 Y30.755 (Contour)
X264.956 Y30.715 (Contour)
X264.909 Y30.675 (Contour)
X264.863 Y30.634 (Contour)
X264.817 Y30.593 (Contour)
X264.771 Y30.552 (Contour)
X264.725 Y30.509 (Contour)
X264.681 Y30.467 (Contour)
X264.636 Y30.424 (Contour)
X264.592 Y30.381 (Contour)
X264.548 Y30.337 (Contour)
X264.505 Y30.293 (Contour)
X264.462 Y30.248 (Contour)
X264.420 Y30.204 (Contour)
X264.377 Y30.158 (Contour)
X264.336 Y30.113 (Contour)
X264.295 Y30.066 (Contour)
X264.254 Y30.020 (Contour)
X264.214 Y29.973 (Contour)
X264.174 Y29.926 (Contour)
X264.135 Y29.878 (Contour)
X264.096 Y29.830 (Contour)
X264.058 Y29.781 (Contour)
X264.020 Y29.732 (Contour)
X263.983 Y29.683 (Contour)
X263.946 Y29.634 (Contour)
X263.909 Y29.583 (Contour)
X263.874 Y29.535 (Contour)
X263.839 Y29.484 (Contour)
X263.812 Y29.446 (Contour)
X263.703 Y29.285 (Contour)
X263.591 Y29.107 (Contour)
X263.493 Y28.940 (Contour)
X263.392 Y28.755 (Contour)
X263.305 Y28.581 (Contour)
X263.217 Y28.390 (Contour)
X263.142 Y28.211 (Contour)
X263.067 Y28.014 (Contour)
X263.004 Y27.831 (Contour)
X262.942 Y27.630 (Contour)
X262.891 Y27.442 (Contour)
X262.843 Y27.237 (Contour)
X262.804 Y27.047 (Contour)
X262.770 Y26.840 (Contour)
X262.744 Y26.647 (Contour)
X262.723 Y26.438 (Contour)
X262.710 Y26.244 (Contour)
X262.703 Y26.034 (Contour)
Y25.840 (Contour)
X262.710 Y25.629 (Contour)
X262.723 Y25.436 (Contour)
X262.744 Y25.226 (Contour)
X262.770 Y25.034 (Contour)
X262.804 Y24.826 (Contour)
X262.843 Y24.636 (Contour)
X262.891 Y24.431 (Contour)
X262.942 Y24.244 (Contour)
X263.004 Y24.043 (Contour)
X263.067 Y23.859 (Contour)
X263.142 Y23.662 (Contour)
X263.217 Y23.484 (Contour)
X263.305 Y23.292 (Contour)
X263.392 Y23.119 (Contour)
X263.493 Y22.934 (Contour)
X263.591 Y22.766 (Contour)
X263.703 Y22.588 (Contour)
X263.812 Y22.428 (Contour)
X263.856 Y22.370 (Contour)
X263.854 Y22.368 (Contour)
X263.922 Y22.273 (Contour)
X263.991 Y22.179 (Contour)
X264.063 Y22.086 (Contour)
X264.136 Y21.995 (Contour)
X264.211 Y21.904 (Contour)
X264.287 Y21.816 (Contour)
X264.366 Y21.728 (Contour)
X264.445 Y21.643 (Contour)
X264.527 Y21.558 (Contour)
X264.609 Y21.476 (Contour)
X264.694 Y21.394 (Contour)
X264.779 Y21.314 (Contour)
X264.867 Y21.236 (Contour)
X264.955 Y21.160 (Contour)
X265.046 Y21.084 (Contour)
Y5.175 (Contour)
X171.066 (Contour)
Y21.084 (Contour)
X171.156 Y21.160 (Contour)
X171.244 Y21.236 (Contour)
X171.332 Y21.314 (Contour)
X171.417 Y21.394 (Contour)
X171.502 Y21.476 (Contour)
X171.584 Y21.558 (Contour)
X171.666 Y21.643 (Contour)
X171.745 Y21.728 (Contour)
X171.824 Y21.816 (Contour)
X171.900 Y21.904 (Contour)
X171.975 Y21.995 (Contour)
X172.048 Y22.086 (Contour)
X172.120 Y22.179 (Contour)
X172.189 Y22.272 (Contour)
X172.257 Y22.368 (Contour)
X172.299 Y22.428 (Contour)
X172.408 Y22.588 (Contour)
X172.520 Y22.766 (Contour)
X172.618 Y22.934 (Contour)
X172.719 Y23.119 (Contour)
X172.806 Y23.292 (Contour)
X172.894 Y23.484 (Contour)
X172.969 Y23.662 (Contour)
X173.044 Y23.859 (Contour)
X173.107 Y24.043 (Contour)
X173.169 Y24.244 (Contour)
X173.220 Y24.431 (Contour)
X173.268 Y24.636 (Contour)
X173.307 Y24.826 (Contour)
X173.341 Y25.034 (Contour)
X173.367 Y25.226 (Contour)
X173.388 Y25.436 (Contour)
X173.401 Y25.629 (Contour)
X173.408 Y25.840 (Contour)
Y26.034 (Contour)
X173.401 Y26.244 (Contour)
X173.388 Y26.438 (Contour)
X173.367 Y26.647 (Contour)
X173.341 Y26.840 (Contour)
X173.307 Y27.047 (Contour)
X173.268 Y27.237 (Contour)
X173.220 Y27.442 (Contour)
X173.169 Y27.630 (Contour)
X173.107 Y27.831 (Contour)
X173.044 Y28.014 (Contour)
X172.969 Y28.211 (Contour)
X172.894 Y28.390 (Contour)
X172.806 Y28.581 (Contour)
X172.719 Y28.755 (Contour)
X172.618 Y28.940 (Contour)
X172.520 Y29.107 (Contour)
X172.408 Y29.285 (Contour)
X172.299 Y29.446 (Contour)
X172.272 Y29.481 (Contour)
X172.273 Y29.482 (Contour)
X172.238 Y29.533 (Contour)
X172.202 Y29.583 (Contour)
X172.165 Y29.634 (Contour)
X172.128 Y29.683 (Contour)
X172.091 Y29.732 (Contour)
X172.053 Y29.781 (Contour)
X172.015 Y29.830 (Contour)
X171.976 Y29.878 (Contour)
X171.937 Y29.926 (Contour)
X171.897 Y29.973 (Contour)
X171.857 Y30.020 (Contour)
X171.816 Y30.066 (Contour)
X171.775 Y30.113 (Contour)
X171.734 Y30.158 (Contour)
X171.691 Y30.204 (Contour)
X171.649 Y30.248 (Contour)
X171.606 Y30.293 (Contour)
X171.563 Y30.337 (Contour)
X171.519 Y30.381 (Contour)
X171.475 Y30.424 (Contour)
X171.430 Y30.467 (Contour)
X171.386 Y30.509 (Contour)
X171.340 Y30.552 (Contour)
X171.294 Y30.593 (Contour)
X171.248 Y30.634 (Contour)
X171.202 Y30.675 (Contour)
X171.155 Y30.715 (Contour)
X171.107 Y30.755 (Contour)
X171.059 Y30.794 (Contour)
X171.012 Y30.833 (Contour)
X170.963 Y30.871 (Contour)
X170.914 Y30.909 (Contour)
X170.865 Y30.947 (Contour)
X170.815 Y30.983 (Contour)
X170.765 Y31.020 (Contour)
X170.716 Y31.055 (Contour)
X170.666 Y31.090 (Contour)
X170.627 Y31.117 (Contour)
X170.467 Y31.226 (Contour)
X170.289 Y31.338 (Contour)
X170.122 Y31.437 (Contour)
X169.937 Y31.537 (Contour)
X169.763 Y31.624 (Contour)
X169.572 Y31.712 (Contour)
X169.393 Y31.787 (Contour)
X169.196 Y31.862 (Contour)
X169.013 Y31.925 (Contour)
X168.812 Y31.987 (Contour)
X168.624 Y32.038 (Contour)
X168.419 Y32.086 (Contour)
X168.229 Y32.125 (Contour)
X168.022 Y32.160 (Contour)
X167.829 Y32.185 (Contour)
X167.620 Y32.206 (Contour)
X167.426 Y32.219 (Contour)
X167.216 Y32.226 (Contour)
X167.022 (Contour)
X166.811 Y32.219 (Contour)
X166.618 Y32.206 (Contour)
X166.408 Y32.185 (Contour)
X166.216 Y32.160 (Contour)
X166.008 Y32.125 (Contour)
X165.818 Y32.086 (Contour)
X165.613 Y32.038 (Contour)
X165.426 Y31.987 (Contour)
X165.224 Y31.925 (Contour)
X165.041 Y31.862 (Contour)
X164.844 Y31.787 (Contour)
X164.665 Y31.712 (Contour)
X164.474 Y31.624 (Contour)
X164.301 Y31.537 (Contour)
X164.116 Y31.437 (Contour)
X163.948 Y31.338 (Contour)
X163.770 Y31.226 (Contour)
X163.610 Y31.117 (Contour)
X163.552 Y31.073 (Contour)
X163.550 Y31.075 (Contour)
X163.455 Y31.007 (Contour)
X163.361 Y30.938 (Contour)
X163.268 Y30.866 (Contour)
X163.177 Y30.793 (Contour)
X163.086 Y30.718 (Contour)
X162.998 Y30.642 (Contour)
X162.910 Y30.563 (Contour)
X162.825 Y30.484 (Contour)
X162.740 Y30.402 (Contour)
X162.657 Y30.320 (Contour)
X162.576 Y30.235 (Contour)
X162.496 Y30.150 (Contour)
X162.418 Y30.062 (Contour)
X162.342 Y29.974 (Contour)
X162.266 Y29.884 (Contour)
(Contour)
G00 Z5.000 (Lead out)
(Retract)
X335.421 Y29.984 (Lead in)
G01 X329.071 Z-3.000 F600 (Plunge)
X313.308 F2500 (Contour)
Y98.364 (Contour)
X329.071 (Contour)
X329.116 Y98.309 (Contour)
X329.195 Y98.218 (Contour)
X329.273 Y98.131 (Contour)
X329.355 Y98.043 (Contour)
X329.437 Y97.958 (Contour)
X329.522 Y97.873 (Contour)
X329.607 Y97.791 (Contour)
X329.695 Y97.709 (Contour)
X329.783 Y97.631 (Contour)
X329.874 Y97.552 (Contour)
X329.964 Y97.477 (Contour)
X330.058 Y97.402 (Contour)
X330.151 Y97.330 (Contour)
X330.247 Y97.259 (Contour)
X330.343 Y97.191 (Contour)
X330.405 Y97.148 (Contour)
X330.565 Y97.039 (Contour)
X330.749 Y96.923 (Contour)
X330.916 Y96.824 (Contour)
X331.107 Y96.721 (Contour)
X331.281 Y96.634 (Contour)
X331.478 Y96.543 (Contour)
X331.657 Y96.468 (Contour)
X331.860 Y96.391 (Contour)
X332.043 Y96.327 (Contour)
X332.251 Y96.264 (Contour)
X332.438 Y96.213 (Contour)
X332.649 Y96.163 (Contour)
X332.840 Y96.124 (Contour)
X333.054 Y96.089 (Contour)
X333.246 Y96.063 (Contour)
X333.462 Y96.041 (Contour)
X333.656 Y96.028 (Contour)
X333.873 Y96.021 (Contour)
X334.067 (Contour)
X334.284 Y96.028 (Contour)
X334.478 Y96.041 (Contour)
X334.694 Y96.063 (Contour)
X334.886 Y96.089 (Contour)
X335.100 Y96.124 (Contour)
X335.291 Y96.163 (Contour)
X335.502 Y96.213 (Contour)
X335.689 Y96.264 (Contour)
X335.897 Y96.327 (Contour)
X336.080 Y96.391 (Contour)
X336.283 Y96.468 (Contour)
X336.462 Y96.543 (Contour)
X336.659 Y96.634 (Contour)
X336.833 Y96.721 (Contour)
X337.024 Y96.824 (Contour)
X337.191 Y96.923 (Contour)
X337.375 Y97.039 (Contour)
X337.535 Y97.148 (Contour)
X337.572 Y97.176 (Contour)
X337.573 Y97.174 (Contour)
X337.624 Y97.210 (Contour)
X337.676 Y97.247 (Contour)
X337.726 Y97.283 (Contour)
X337.777 Y97.321 (Contour)
X337.826 Y97.359 (Contour)
X337.876 Y97.397 (Contour)
X337.925 Y97.436 (Contour)
X337.974 Y97.476 (Contour)
X338.022 Y97.515 (Contour)
X338.071 Y97.556 (Contour)
X338.118 Y97.596 (Contour)
X338.166 Y97.638 (Contour)
X338.212 Y97.680 (Contour)
X338.259 Y97.722 (Contour)
X338.305 Y97.764 (Contour)
X338.351 Y97.808 (Contour)
X338.396 Y97.851 (Contour)
X338.441 Y97.895 (Contour)
X338.485 Y97.939 (Contour)
X338.530 Y97.985 (Contour)
X338.573 Y98.029 (Contour)
X338.616 Y98.076 (Contour)
X338.658 Y98.121 (Contour)
X338.701 Y98.168 (Contour)
X338.742 Y98.215 (Contour)
X338.784 Y98.262 (Contour)
X338.824 Y98.310 (Contour)
X338.865 Y98.358 (Contour)
X338.905 Y98.406 (Contour)
X338.944 Y98.456 (Contour)
X338.983 Y98.504 (Contour)
X339.022 Y98.554 (Contour)
X339.059 Y98.604 (Contour)
X339.097 Y98.655 (Contour)
X339.134 Y98.705 (Contour)
X339.170 Y98.755 (Contour)
X339.206 Y98.806 (Contour)
X339.233 Y98.845 (Contour)
X339.342 Y99.006 (Contour)
X339.458 Y99.190 (Contour)
X339.556 Y99.357 (Contour)
X339.660 Y99.548 (Contour)
X339.747 Y99.721 (Contour)
X339.837 Y99.919 (Contour)
X339.912 Y100.097 (Contour)
X339.990 Y100.300 (Contour)
X340.053 Y100.484 (Contour)
X340.117 Y100.691 (Contour)
